josephletobar/emg2pose/notebooks/joint_angle_predictions.csv
gt_joint_0,pred_joint_0,gt_joint_1,pred_joint_1,gt_joint_2,pred_joint_2,gt_joint_3,pred_joint_3,gt_joint_4,pred_joint_4,gt_joint_5,pred_joint_5,gt_joint_6,pred_joint_6,gt_joint_7,pred_joint_7,gt_joint_8,pred_joint_8,gt_joint_9,pred_joint_9,gt_joint_10,pred_joint_10,gt_joint_11,pred_joint_11,gt_joint_12,pred_joint_12,gt_joint_13,pred_joint_13,gt_joint_14,pred_joint_14,gt_joint_15,pred_joint_15,gt_joint_16,pred_joint_16,gt_joint_17,pred_joint_17,gt_joint_18,pred_joint_18,gt_joint_19,pred_joint_19
-0.16425752639770508,-0.09942708909511566,-0.018807774409651756,0.13608035445213318,0.1447862684726715,0.2182738482952118,0.9533617496490479,0.2754800021648407,0.05112268775701523,0.028027035295963287,0.9476971626281738,0.3795495629310608,1.9699937105178833,0.7410570979118347,1.0028356313705444,0.2749485671520233,-0.06167406961321831,-0.004650840535759926,1.1265461444854736,0.49961188435554504,1.6830799579620361,0.6610618233680725,1.5209587812423706,0.36995142698287964,0.04563913866877556,0.030075153335928917,0.9853161573410034,0.5390255451202393,1.6906007528305054,0.6528487801551819,1.3089816570281982,0.3674822449684143,-0.10949798673391342,-0.03833712264895439,1.0807067155838013,0.471983402967453,1.5550966262817383,0.6814450621604919,0.7814183235168457,0.3607734739780426
-0.16683708156741928,-0.23268631060816458,-0.016620491979912822,0.14536195913747174,0.13505693094484905,0.22965617459246188,0.964785916203118,0.21308789918447113,0.047036779309126024,0.0766194387888949,0.9604974275156093,0.605472205340252,1.9696831623848794,0.8342031162482209,1.0381546367693002,0.28013234281227994,-0.06219471215065971,0.013841351017936538,1.1277534046948838,0.6942863686431933,1.7037189830692148,0.6729616109489446,1.5209248007632223,0.36863150826493224,0.047986288581454574,0.04742859343365598,0.9925497465505264,0.656923804063439,1.6982176718858322,0.6426613082657903,1.3324541676708999,0.35081939344994717,-0.10528947272262747,-0.064796848462066,1.0825779897767935,0.48309862654363744,1.5663012695393872,0.7241394480137289,0.800190138904986,0.32250331588030134
-0.16899612857891294,-0.18871926254379873,-0.01488271058220268,0.09781954768913734,0.12891398792380765,0.28982287018101094,0.9712159611259304,0.14086237407381624,0.04438764981255868,0.09767821940579648,0.966246012466895,0.6841679969474046,1.969736507728238,0.7158501991097295,1.065014277573196,0.25794045238907154,-0.062156424422211205,0.018252810751500117,1.1268547009825027,0.7511531993390757,1.7143357202868412,0.5781211004051061,1.5209306478500366,0.34658327200306965,0.05122069070651805,0.058944380561375104,0.9965644132968916,0.6852342449086246,1.7056012576757438,0.5658154945324712,1.3447433097099417,0.3220994485048439,-0.10239392051958522,-0.10161406040801936,1.083688103705136,0.47139183198768253,1.5815024329804994,0.6434665048352959,0.8077000663684633,0.2639802396975551
-0.17172473999623958,-0.2150651039778169,-0.0167348857606688,0.11389226254088479,0.12448110759461699,0.2760899276456735,0.9794135148614747,0.20935460515701726,0.04012696150016459,0.09190140311119906,0.9734167312192429,0.7503372495898615,1.9697273969650269,0.8488415829557607,1.0681548208099991,0.3240523172014809,-0.061817335136514474,0.017252735030732456,1.1316640041387123,0.7980191871371286,1.7065521025006682,0.7101017272309638,1.5209296941757202,0.4364144161801289,0.05287016650388469,0.0553809933605963,1.0028574485013917,0.7230692294270512,1.7063028031241771,0.6898638683374424,1.3572633907249763,0.41004942540626066,-0.09812412736460617,-0.08926381512764371,1.0866790147364749,0.507813620180807,1.5882475168631751,0.7485655692657106,0.8102138674096443,0.35923526057204286
-0.18093815374699876,-0.23260924969381302,-0.02591497389826419,0.1383657195564016,0.12605971599737262,0.2948555617473502,1.00951979754321,0.2732549429075438,0.03196166265031177,0.08865633257691229,0.9947155084083783,0.8208859378431708,1.969728946685791,0.9893647681866624,1.0347574235907457,0.3794471161425181,-0.060926600570225746,0.02641313164722729,1.1557575476454387,0.8673730709582601,1.6634204224921738,0.833847400068016,1.5209298133850098,0.5131649345803722,0.056389344582785515,0.07026058543935434,1.0227856398713737,0.79950536124671,1.7005815016396082,0.8113281275903269,1.368877506500218,0.4863663051654589,-0.09050667420690785,-0.06104140808812182,1.1042852011150062,0.5827986045366532,1.5846980140206486,0.8742360398766665,0.8194001768636215,0.4488477175281858
-0.1817996289848061,-0.25874447225846253,-0.026698121759697237,0.14414629276600308,0.12596563760941346,0.30010514590249265,1.0280665711195667,0.3580187332304671,0.030829536103441108,0.09024820665365871,1.0005386484632177,0.865189495482678,1.969728708267212,1.1468477072162433,1.0225795148718209,0.4547446664079464,-0.060776364782971326,0.03882650059432774,1.1603828897112738,0.8886857513885043,1.6579139521504425,0.9599383457461044,1.5209298133850098,0.5985489662596797,0.058893246872857026,0.08180310467811168,1.0275313180190033,0.8253175476915601,1.6934790078283577,0.9346788676796783,1.384446510479312,0.5640610556485846,-0.08474573398070395,-0.03859878072898679,1.1071709468367428,0.6343504313180336,1.5811604839136169,0.9832198822932303,0.8378406902425525,0.5424771825947181
-0.17985831602848432,-0.22449466703084553,-0.022781676444329914,0.14022528153841,0.1276950542226993,0.3078942848146979,1.0244554057463038,0.3577410681459277,0.0327699066429008,0.0902399969487467,0.998579609312702,0.858568178102018,1.969728708267212,1.15001819849828,1.0328746293591964,0.4362883405067001,-0.05559589462068708,0.04142852956524481,1.1574613868986787,0.9069327948036454,1.6721965172185018,0.9806190310077861,1.5209298133850098,0.5894525559688998,0.05973139626479393,0.08153644509282941,1.0210334953594533,0.8429291470058948,1.6914360466263807,0.9519901145440319,1.3963518028780055,0.5638448284754574,-0.09195127704342883,-0.03396465376324622,1.10401478521653,0.631608468070372,1.5707792588875156,0.9886903203388122,0.8535264093721279,0.5495586720749787
-0.18144619163121514,-0.18883628203227382,-0.01984603632033821,0.15203797518020332,0.13342656631688074,0.3192667669200246,1.0138835963264397,0.38500502237687745,0.030526899524982404,0.08539428444106695,0.9999754718071501,0.8028450004747973,1.969728708267212,1.126938425368959,1.0372328725691136,0.4234640820034535,-0.05520650236925642,0.039968337897588496,1.1573944598334642,0.8304286090587186,1.677787842536271,0.9716877550802133,1.5209298133850098,0.5820014732418343,0.057905088258277844,0.07994499006250341,1.014175815861651,0.7680447780367186,1.6937773869170536,0.9507449186906065,1.389119651130442,0.5607869175174808,-0.09753967541035803,-0.03254674655195661,1.1002005966585786,0.5654072968354946,1.5643833322329732,0.9769587913809918,0.8635451198980398,0.5665539076236056
-0.18548217200514128,-0.2213738983808524,-0.021206985834871538,0.1520607521306126,0.14107124824437128,0.3393916154409567,1.0119853326213781,0.41341544672490793,0.03539983694684247,0.09623354925976406,0.995351169635547,0.8047534876309158,1.969728708267212,1.1165514255410847,1.0654713895947452,0.4029995675651151,-0.05525319215940127,0.046045969565641616,1.1573044593288087,0.8228807642598202,1.6698089603406714,0.9633407199477716,1.5209298133850098,0.5820533226374474,0.05609405702732258,0.08199933182291338,1.0019561392726617,0.7468869326735791,1.693765647310988,0.9411243372538527,1.3922113874530901,0.5604440748216892,-0.10238146596292587,-0.03816496908868131,1.0932399053486812,0.5270372894301214,1.5649489990273433,0.9748844929522622,0.8672852190010105,0.5598762240832983
-0.198209329066423,-0.2347049473088756,-0.035094413518549625,0.13039742308468544,0.15559475701111575,0.3608311967027879,1.02271596400811,0.43071567620637063,0.04258775487923581,0.09601287781531087,0.968595540360786,0.7083209692007854,1.969728708267212,0.9965089854526846,1.1377349036138618,0.36949575639015175,-0.055236567085157486,0.042241135116272414,1.1570488598973272,0.7563713325168493,1.6436767368593315,0.8713816798994566,1.5209298133850098,0.5476958040694735,0.04771623274775496,0.07521042480759654,0.9799174119181194,0.698234075674018,1.690709255457738,0.8584925428592305,1.4260315874737683,0.5252354805176576,-0.10335846844132443,-0.0455783432661063,1.0989081759908501,0.4965585088261972,1.5536069461103186,0.9039136043180784,0.8648980869164646,0.5105111537939859
-0.21531341120651556,-0.2633711140310398,-0.05821405534247894,0.10083502753975722,0.1708550246875305,0.37459688334470453,1.0333511220445948,0.43605958245720067,0.042117446262614044,0.10044064187149138,0.932010188376673,0.6251956280723503,1.969728708267212,0.8981672164658775,1.200120619810753,0.3520205455564124,-0.05524036339118619,0.04137725514848213,1.1568005749525607,0.7058822645533479,1.620377888994141,0.7977767930502779,1.5209298133850098,0.540239448297824,0.03684261964212371,0.0705981734076322,0.9657280141989932,0.6674801092912721,1.6820051020458426,0.7981428556881668,1.4849131999704752,0.5157536515061224,-0.10144240647317064,-0.05277468809122652,1.1086528473475417,0.48904610877015364,1.5482764960149042,0.8562416393602261,0.8538768849546456,0.49046052098952336
-0.22501822146539394,-0.2721014701431793,-0.08218931525826995,0.07241356218142588,0.1800048662279653,0.35967224799054204,1.0327577936093284,0.38298001124251285,0.03893020896366093,0.11293273230970108,0.9092850069747443,0.5604776278968828,1.969728708267212,0.7110085199513941,1.258279768137666,0.29083357146168737,-0.05527341133354399,0.04403457003809825,1.1567141734428101,0.5731941581247069,1.6166393188621946,0.6161892414771115,1.5209298133850098,0.44921175782930056,0.03329394891671624,0.06955103460059367,0.9631637320922639,0.4951590133472787,1.6882038622314748,0.6130901225529977,1.5212227576693034,0.416795939919078,-0.0910510706447226,-0.07986137195913048,1.111217636704038,0.29266660069714107,1.5679559145499957,0.6931316967506865,0.8350605991106391,0.37756784353511197
-0.2170192196507503,-0.2759840238216387,-0.10105474918775588,0.06836970486128288,0.1749153900573685,0.3302753338838194,1.015775099956135,0.33967513120621956,0.030748801331318704,0.11264950021745403,0.9125173600460482,0.6759589239192086,1.969728708267212,0.6919337901645958,1.3169471965308075,0.27313609456853244,-0.05512895414751951,0.04253102791950158,1.156842099521754,0.5517119506927073,1.6362818015720249,0.541148718103207,1.5209298133850098,0.3817048224369414,0.039786096547854206,0.06991144729962527,0.9707680826707912,0.40369336159562913,1.7113318435161187,0.52004164314921,1.5208769149747725,0.34510312084451883,-0.07899637232970055,-0.09341775300458022,1.112436858460358,0.15116778804377098,1.6088349664577444,0.6170099229129101,0.8209107241532908,0.30589152511476253
-0.19102530321265246,-0.273163161468316,-0.10684092012281711,0.08045472364885407,0.15810859044833667,0.3091849850001189,0.9732840555858829,0.34767542369197524,0.028870802946956625,0.10544267668048676,0.9385367584784554,0.8895125562013618,1.969728708267212,0.8709263633067832,1.360221057147025,0.31736355462239735,-0.055972907798146496,0.04316803442782577,1.156892581197589,0.6623897624707465,1.6704952871433296,0.6513604086752772,1.5209298133850098,0.40554050728254887,0.05418287237324201,0.07447606985869397,0.9889514786662773,0.46311901706409664,1.7342776511716353,0.6113762457148342,1.520939291201625,0.3679274082590695,-0.062049209923230216,-0.08423067968385349,1.1140275425335924,0.1725352458799929,1.6733587423553509,0.7054223380601445,0.8287180200032678,0.3384782165051591
-0.15556005343574447,-0.2674283861978333,-0.09656835407595046,0.10511524491308757,0.128400314823895,0.2966289397528283,0.9000491981349031,0.3847576731029766,0.02686744937895712,0.09882119215762114,0.9879907988715361,1.0627659294792406,1.969728708267212,1.0969343129820923,1.373020788101613,0.366919974146985,-0.05092919977706043,0.051686509871543856,1.1585244094959297,0.8518967551176048,1.7263643740251473,0.8515802859853148,1.5209298133850098,0.48340142278405435,0.07839514858452798,0.08543684064019659,1.0210514206935113,0.6518363362693131,1.7521066439165325,0.8055436095822518,1.5209281101432948,0.45410438971985984,-0.03536869636795091,-0.051971614081094776,1.124966138458903,0.3406784400530367,1.7430163191989554,0.8818707107412662,0.8323252765256255,0.43431065832524285
-0.13345896923094477,-0.27316574147130035,-0.07714592257304807,0.13206016040906157,0.09077436685460416,0.2911369512207272,0.8005334887488302,0.4011134341003138,0.022234443737251145,0.1012459676776323,1.04940650955402,1.1339349618543944,1.969728708267212,1.2392583310400669,1.336574581092535,0.40014148246713066,-0.030827009026914716,0.06164625892256716,1.1769313871250218,0.9727193769131098,1.7751566621223815,0.9905957291760951,1.5209298133850098,0.5523384939688465,0.10640652013669245,0.09468870827413257,1.0610908652328388,0.7798983425207107,1.760483278349398,0.9452561394346454,1.520930059737313,0.5262328050649208,-0.0012772419924391301,-0.030620177591111467,1.1467376546648176,0.45375639362953635,1.7680584460802047,1.0149086669036553,0.8443188499468586,0.5193725943361941
-0.13986594413870157,-0.28143406310992847,-0.04354693538025114,0.13479481579839708,0.07801990270343387,0.28843937921035817,0.6898246894381832,0.41342563701706675,-0.006866607286324152,0.11611862720516897,1.110552991616441,1.1515133630429248,1.969728708267212,1.355615659649733,1.2792673546299593,0.4554328511938436,-0.039956002982504915,0.07144395100955128,1.2294273711444303,1.0095627393331954,1.7555221960677494,1.106450014418167,1.5209298133850098,0.6329469092198742,0.11765126118582671,0.10033273447699108,1.120720669271189,0.8236169549249818,1.7452224505232463,1.0655966386860143,1.5209296941757202,0.6030136494641961,0.02308532086850498,-0.02997846065239557,1.19287202952258,0.4965014289195764,1.7566122604582768,1.1230924963544255,0.8580598249370327,0.6014483152667275
-0.12727369320609602,-0.26199808755764514,0.003502789912088402,0.14411885587157378,0.04153319815040251,0.28739562739148755,0.5843928566836118,0.38225971416605214,-0.00021286712504081288,0.1151516936693989,1.0992524409592492,1.0087641810530013,1.969728708267212,1.2291611595772234,1.296818228711854,0.43506606013023547,-0.04546269399788871,0.06492824656666343,1.239405619406456,0.8765689934751145,1.755486830577373,0.999875587475856,1.5209298133850098,0.5962351993896042,0.11502182278972843,0.09289439126374509,1.1459392476678572,0.7268952146189477,1.7547090843540274,0.9751852405966347,1.5209298133850098,0.5680596626727112,0.03650790481352425,-0.042283453382085466,1.2014132857458313,0.45514761993027925,1.747022185377158,1.039600831114256,0.9219203702893544,0.5616513339461456
-0.10660258433924605,-0.24803175174539002,0.03603592625606174,0.16986255327385838,0.013692807628687369,0.28824532469384906,0.5069607874639207,0.3750255583903082,0.03952292679672343,0.10151724016401958,1.0254932593160118,0.8705958144249775,1.969728708267212,1.15534458510298,1.3758125687621963,0.4197400499122543,-0.04450907362402503,0.05224829669342517,1.237258040864313,0.8326124725895124,1.772806245312349,0.9716634213314124,1.5209298133850098,0.5846560542493958,0.12095943721386351,0.08073449483198522,1.1744790842101842,0.7469339452099067,1.7440774676742814,0.958125397613838,1.5209298133850098,0.5665262422870858,0.053024858452455935,-0.042121451932924166,1.217746013667396,0.5299501870679366,1.737209515766886,1.0157753969622147,0.9872771761930027,0.5550243899277048
-0.09146809001560233,-0.23542969717100617,0.06827652471328623,0.19595938365783572,-0.0007590463511665389,0.2705258661467874,0.41704203130781176,0.33805166328997605,0.0660723235809898,0.09284127197218836,0.9161236905604092,0.6619086215045807,1.969728708267212,1.024068542172342,1.4079324408467178,0.35575630770947475,-0.04463675081416269,0.038613040805439355,1.237863768557504,0.8041983913032675,1.7834318586719458,0.932035928598443,1.5209298133850098,0.5465231566298944,0.11974376813424868,0.06232075790098028,1.206066787853176,0.7989694868067154,1.7330435978945884,0.9351892724921408,1.5209298133850098,0.546629024582647,0.0632997003380756,-0.05328326984239791,1.2458850473538465,0.6119381180192016,1.7045407297939434,0.983792544258875,1.0947318623632836,0.5223232803355576
-0.08073364071064842,-0.23182193995946096,0.11428831804191969,0.23350549383307206,-0.01477572276861967,0.23139494665992683,0.32559338612089933,0.2718840368914252,0.049271124969231264,0.08626977484821595,0.7538398282519787,0.4240277649599538,1.969728708267212,0.8878274623715702,1.2185185594363426,0.2622819546953403,-0.044605011105605226,0.028949719166067412,1.2378253379372606,0.8673111626176975,1.80159492663556,0.9645486338417956,1.5209298133850098,0.5422727968776864,0.1128842634179622,0.045835134506530734,1.2174507912515373,0.9646948690571746,1.7319141782320129,1.0036126000889332,1.5209298133850098,0.5685458435540313,0.05783340461611477,-0.04975170068298727,1.2562525265588425,0.7799651974704078,1.6718274250507896,1.036043378951471,1.182677819324706,0.5296416458958787
-0.06585487686479052,-0.24643767571693395,0.14165135223812617,0.2874564613905376,-0.021077805847158404,0.20783815871123162,0.2675936244962159,0.23580519430364766,0.03665707242570233,0.07465458282431646,0.6994953246043404,0.33945933940467576,1.969728708267212,0.850419711436021,1.0572104832418137,0.2024531259929361,-0.044602077810328974,0.027579705834821017,1.237949714318884,1.0036652285491239,1.8202095847487856,1.0525891203115416,1.5209298133850098,0.5677764088220564,0.11625257524766612,0.04272121087403224,1.2254598136647976,1.1292920177707086,1.7349622568986522,1.101229372284925,1.5209298133850098,0.599455362700765,0.05691861707729894,-0.03395952787822425,1.2637344686244536,0.8894249132672267,1.6429383693701578,1.119433024840957,1.2595118988089187,0.5561721133697561
-0.06023318805775274,-0.2408154428140838,0.14775734034550203,0.29264553591388626,-0.022081962033292542,0.22057873837912578,0.24649781241284027,0.24182145539946653,0.039933440988550666,0.06977875690072334,0.7221918471572883,0.38086640000750155,1.969728708267212,0.877749111736458,1.0358223894757215,0.20373729159536344,-0.04458984670751602,0.02826020498977247,1.238056577377623,1.013582951650956,1.8284630662887713,1.0672056928565206,1.5209298133850098,0.5665364058622593,0.12121041347956088,0.0464696329896496,1.2291611523894048,1.1182548624121154,1.7333941362009928,1.1163774094077101,1.5209298133850098,0.6019090606626526,0.05672161851980988,-0.02701395492157365,1.2626046247449751,0.863322611351469,1.6310529240976015,1.1395466308680546,1.2988639600719065,0.568353396837215
-0.06295928328093543,-0.22101966894323918,0.15300750848545827,0.247524036584047,-0.020462015606632484,0.26386069886988195,0.2453379413712689,0.3067683268325726,0.06707501219452033,0.0739958639276787,0.7761206530263399,0.516344159875442,1.969728708267212,0.9932148079552068,1.032806723326682,0.2593668356147913,-0.04457255733009763,0.03134134026780402,1.238093841808241,0.9726564066401928,1.8349407392557164,1.081257172751074,1.5209298133850098,0.572545076596452,0.12420000441889442,0.0516865162562422,1.224700580549186,1.0569706565962176,1.734890536168872,1.146104140493243,1.5209298133850098,0.6149082767000512,0.054453348245077575,-0.02461954227312806,1.2550859972749826,0.8289138279066964,1.627609257337312,1.1716591981626343,1.313165912177918,0.5998488390676261
-0.06987131018280573,-0.18689396448509699,0.146243852356595,0.17435254095560893,-0.015137335460366065,0.3192362083509918,0.25082565513487154,0.3840435609068884,0.08514771908013077,0.09235238522901462,0.8174071989368659,0.6147534489224792,1.969728708267212,1.093631712649869,1.0426211316430933,0.3279200341717779,-0.04457241993511903,0.0369839512650877,1.2381294265948872,0.885995915521941,1.8351650840186422,1.0852960791604103,1.5209298133850098,0.5916186284286576,0.12758741438795682,0.05252066619516233,1.2205276066125863,0.9739057564084443,1.737454505503788,1.1775239095752963,1.5209298133850098,0.6441505105829075,0.05264491023362294,-0.031740108918106164,1.2493354712736893,0.7996584022411308,1.6297088653968055,1.1911170047297819,1.3130400884680373,0.6477701446302105
-0.07425319857310517,-0.1679080308110912,0.13876144422707704,0.10768819576186534,-0.015517968921768516,0.36043231111269897,0.26435098904730653,0.4231705723057021,0.08160783411920139,0.10513180700280153,0.8436155972898481,0.6417670276045664,1.969728708267212,1.1229612118012533,1.0682079693698774,0.3768851231186056,-0.04452508647075353,0.03560378787079159,1.2379731471492432,0.7714390820135978,1.8289223599488147,1.0407317183123515,1.5209298133850098,0.5944252295570026,0.12768049795812036,0.04725402513512573,1.219752112956584,0.8530591235361544,1.7379922030728832,1.14251622655964,1.5209298133850098,0.6467122936004664,0.05514152712094363,-0.04750042950757805,1.2364907552900304,0.7129191260560246,1.6394212153042,1.1442692233027045,1.3254475693925114,0.6513820882204314
-0.08438617787805973,-0.16159514301330427,0.13357125810931297,0.045313178823330726,-0.009534826632525556,0.3864114335033538,0.2799091715793696,0.4496426360259961,0.07928517127708364,0.10971971043513767,0.8646244962738914,0.6407313401788575,1.969728708267212,1.1446877472501022,1.0999413018069304,0.4169556062850799,-0.04477580566387263,0.030844815136849956,1.238644393908964,0.6994765905390015,1.822166870478477,1.026643019758665,1.5209298133850098,0.6060714213107632,0.12728314311905797,0.03945045252420662,1.2140083973453857,0.7628398614938757,1.7347901800522354,1.1127602115561666,1.5209298133850098,0.652537156561807,0.04470679787357381,-0.06390671109075022,1.235243889658931,0.6314180630330205,1.6293112979407196,1.0951287663701723,1.3099533992144572,0.645412432523582
-0.09648413843008029,-0.15054708904882344,0.12710286061511514,-0.018239577164167672,-0.004555955475971823,0.4164783322973869,0.2995207283277153,0.5044198693268941,0.0890587570444512,0.11392502336677023,0.8756263618176301,0.6436876709550721,1.969728708267212,1.2082230363282733,1.170987636562907,0.46646093976375586,-0.04332924788696978,0.0314068674163912,1.234543080012546,0.6763578326832314,1.8181897711021502,1.0815967787247875,1.5209298133850098,0.6510967592940802,0.12404238103345394,0.03698338053281398,1.203838064198608,0.7221541847181809,1.7344892948560748,1.1445835969147016,1.5209298133850098,0.6925668095972757,0.037117967102358776,-0.07045738142199888,1.2352131308142236,0.5864885583672509,1.625430400664489,1.0949071303976274,1.3017652579948764,0.6802950144424373
-0.12420409911050449,-0.14479993660091947,0.10077948915741423,-0.07031986575077816,0.017167896754929402,0.4377208910161995,0.31455354333195124,0.5410231330831438,0.08147486363695484,0.11452407109316978,0.9248148364961077,0.635093145063984,1.969728708267212,1.2354280185102737,1.2220968138235826,0.49201355004880204,-0.06305868598177969,0.028742372135677315,1.289853582474423,0.667607611831409,1.761929898267449,1.1120418520375188,1.5209296941757202,0.6739201970881569,0.11673190110745557,0.03171899719788897,1.2405878096581588,0.6860189974240206,1.7090806447062747,1.140641485600477,1.5209294557571411,0.7049447220068878,0.041999562867028155,-0.08188149131266598,1.2850540095221872,0.5224652143197394,1.5913692828060146,1.057108261615072,1.3127987493291513,0.6799009731876431
-0.13992403067894219,-0.13894174692980668,0.08509129602398484,-0.08526987321801965,0.031185835025636665,0.47528149848708506,0.33218741978055644,0.5951512190465632,0.06806860439080972,0.10478610917502029,0.9667091269609734,0.6417766234777079,1.969728708267212,1.2582907589900478,1.2896764250609922,0.5142717828319341,-0.07287776156141083,0.023930312580385596,1.3200042776009058,0.6770218876238161,1.732162735025495,1.1325387070474635,1.5209301710128784,0.6872422819590541,0.11359834161600833,0.030110445879060727,1.261748995458171,0.6567083001814876,1.6923728996847542,1.1190662744102218,1.520931410233451,0.7019672383288339,0.04278823162245737,-0.08411553157101449,1.3154227137565613,0.44758676601080105,1.5655279324323244,0.9987380522577702,1.3336452424729643,0.6578601833699914
-0.1412585404647495,-0.13434237424830936,0.08622161311704551,-0.08210275294227404,0.03519799181422277,0.5028402453396508,0.35350164821937224,0.6285499853078823,0.05854874401776048,0.09355061455493086,0.9954598975262952,0.6793349822633503,1.969728708267212,1.2847950218480602,1.341349727871475,0.5234763215426292,-0.07174565541357718,0.02099348758522154,1.3214431317593052,0.7167998281762056,1.7282985994026523,1.1465281231818345,1.5209274133317707,0.6835385261949012,0.11231186413825982,0.03177688314035891,1.2599404122642284,0.667626345727224,1.6897920276524672,1.102683720328295,1.5209200939627638,0.6904166226907802,0.04331560821968541,-0.07834476888586636,1.3187144392586405,0.4192005386734985,1.5445173437684876,0.9507953420840839,1.3573892075860867,0.6293220540362413
-0.1418896740529182,-0.1408835049968666,0.08932805216454807,-0.05855430958027602,0.03615094460674115,0.5093009167767222,0.36066234716986634,0.6339874743940617,0.05223881699933128,0.08138158720779205,1.0173347793070258,0.7323285420939104,1.969728708267212,1.3422737498603445,1.3428145836237755,0.5321094399154932,-0.07126848891258782,0.019112539058074415,1.323558499178382,0.7700667739660395,1.7268850874575332,1.1821321927782347,1.5209440415358517,0.684143633057233,0.11347090165142448,0.03363160763372401,1.2672399428924195,0.7106533671673111,1.6809951568083823,1.1244567385848199,1.5209863375749468,0.6915481546904311,0.04177157710114573,-0.06697183941513203,1.3201264501702934,0.4429790243353858,1.5312132983213127,0.9492168089838972,1.381523718945131,0.6215574684742503
-0.13392846691459248,-0.15142993890045714,0.09130049296850773,-0.028836578853318237,0.031670768152969014,0.5008991007376314,0.3677480504916932,0.6184155601961485,0.05512903861709964,0.07399173924303165,1.012317843133408,0.7930640949866604,1.969728708267212,1.4141940905101198,1.347619927919494,0.5486802886641744,-0.06857594503545383,0.01838835914734755,1.3249551924422331,0.8108749827698499,1.707886473581924,1.2192055228355936,1.5208467920485618,0.6945239700148129,0.1158705686173477,0.03505231456172073,1.2608358950880743,0.7658343215444388,1.6825077172974814,1.1718513048820798,1.5205986351961434,0.7100590060595359,0.041454899899314016,-0.05189652176016566,1.3109776381068399,0.5117490226498235,1.5293836848592053,0.9865305583089148,1.4008194304434785,0.6415899440697028
-0.1262855483759385,-0.16245536790976345,0.08854688074655907,-0.000835301335753987,0.025768918134653502,0.49495373935829656,0.36807635004406497,0.5997344470064794,0.05951232566742972,0.06869880240982709,1.0108515300848377,0.8359517347283738,1.969728708267212,1.4544073213082531,1.3477440765286468,0.5599080975145203,-0.08320959071301363,0.018756019574535987,1.3218055863836113,0.8311748309347002,1.712221087245811,1.2251553445952743,1.5214149174836715,0.6949762786411181,0.10995597703821013,0.03840724050159544,1.2493623399490381,0.7937993836484264,1.6922709895075385,1.1850443423404629,1.5228655987225295,0.7151781730480975,0.045667559366177383,-0.03875205829841285,1.3031689695530784,0.5491078262036163,1.5386774639627632,0.9952781877826911,1.3975526714894553,0.6472309940707561
-0.1328031934704524,-0.14931285196535968,0.07792236811912656,0.011773090929309896,0.03640620271856444,0.4955203776948146,0.3627094546750409,0.5557757115608192,0.05699667631647431,0.06258899899066109,1.0136516570231204,0.7819358141620282,1.969728708267212,1.3425620707499974,1.317749492408744,0.5227792123343218,0.0023414503051373166,0.013567488747558878,1.33998148351806,0.7542357637342473,1.6903438201943357,1.1085583767657672,1.518095292600213,0.6319462382345886,0.16776883054579675,0.034485218938402,1.285398943161123,0.7234881895258433,1.676974826027238,1.0730457558159947,1.5096122516028847,0.6551812649180054,0.04481236231476239,-0.042948800646641624,1.3260763205494621,0.49991181058824014,1.5265523101689469,0.8908983617512445,1.3987857587508374,0.5796319528380084
-0.1602279076159882,-0.14084842911284667,0.02830818110061921,0.031903756756983946,0.07713469105589377,0.4805951109653989,0.31321071135780776,0.5103400357754156,0.053286666404434725,0.053822835212291566,1.0584868315408118,0.6505622327734585,1.969728708267212,1.2155842530171346,1.1317346839232112,0.471039366362716,0.34948342665606147,0.003853957624883466,1.4039611549914495,0.704020344356628,1.619745852326099,1.0340491257294318,1.5168411663232269,0.5911474835140306,0.3698554485866778,0.02064945124962765,1.4101969769247835,0.7083032439389734,1.5522996308589279,1.0028535104584504,1.462218752425414,0.6214430482382118,0.0678553586747324,-0.05483485185313416,1.4117160504588495,0.5133921886805924,1.4800862950676537,0.829772769828434,1.4114898510353557,0.5360990490794046
-0.14496572041064001,-0.13518084875552736,0.00974336583421604,0.05445940153031207,0.05955166297205079,0.4573831961016607,0.26759774865957675,0.46522169664451307,0.0840162253929078,0.0438844065973377,1.0384307383677254,0.4788685684114603,1.969728708267212,1.086213078921973,1.0226914675162517,0.4103626615968584,0.37754853288468265,-0.0032115691316030896,1.4050358590819323,0.6974389117732389,1.6138396193956759,1.0112920674040862,1.5214185950699113,0.5851772781525048,0.37470851965731744,0.010447336456169479,1.4130685170762776,0.7534534552805249,1.5099600240232187,0.9965954441259336,1.461043218703807,0.6247802541524475,0.08781447709115289,-0.055120067041583495,1.3951323496196866,0.5738017526502898,1.514805947554396,0.8325454460476036,1.3887170772910526,0.530658796175348
-0.13934453061450194,-0.12044081600452856,0.0048020187941770895,0.0709661862752543,0.05905818797232619,0.44921665653094767,0.2509851686919237,0.44798721820624615,0.09947843227505818,0.0336741446575682,1.0012575180457315,0.33256228876737753,1.969728708267212,0.9957430925521157,0.971695488528587,0.36219470174103746,0.3741798858254707,-0.005365109075903381,1.4047726731794008,0.7215993036860355,1.6157736492102734,1.045227703923387,1.520845766970729,0.6147964076987712,0.374170784284366,0.00711077392875801,1.412703710068886,0.8325773238186406,1.5172992333752846,1.0566746798662872,1.4611723161259067,0.6634499999918085,0.08679967756733824,-0.03975131591957858,1.3942250582274045,0.6617886389820783,1.5269958424351184,0.8940414815157888,1.3597448268169972,0.5696338418536353
-0.13273466640365,-0.10374311781546633,0.0009292950759010351,0.0852974058638525,0.05777320579389392,0.45376244862060633,0.24330534588490466,0.45541024733593305,0.10372789003234674,0.024621479126356705,0.9974408343654715,0.297777092395789,1.969728708267212,0.9681163361048128,0.9337271647241742,0.3408036326589031,0.37131290441215786,-0.006774782221149802,1.4059830562246538,0.7600113586761031,1.6170676463835612,1.0750131107976955,1.520944254525828,0.6362884064312003,0.37269620744848414,0.005479706150921437,1.4121099691477788,0.8898708722019087,1.5226972777146393,1.1035854397373395,1.461535254164903,0.6912466683621021,0.0900409353199808,-0.02860178821534766,1.3929980716607677,0.7201207713462386,1.5347395312121568,0.9456779446889381,1.34837806224823,0.5970177413118035
-0.1314386790268657,-0.09657101759070422,-0.00622424931160515,0.09083631629626493,0.0603446357664191,0.4666021889387137,0.24193759598219355,0.47143695755216447,0.09711181872076148,0.016967520216295585,1.014251659958029,0.43506323035056177,1.969728708267212,1.0621354297159469,0.9168590640858987,0.36727332331418155,0.389143997796973,-0.003862168188143314,1.4101896062239039,0.8236769929070517,1.6124924260601656,1.1154546336916116,1.5209273370459624,0.6500918012837094,0.38211325650125627,0.014147193428548449,1.4162217663416683,0.9123487335219723,1.5215090842784063,1.1341938498483988,1.4592314081794167,0.7041392399589356,0.09245280281929838,-0.01087251113912061,1.3953773265405727,0.7148965162832176,1.53474171820761,0.981101795776712,1.3468466016619685,0.6172773927551893
-0.13215485716978168,-0.10894743973586338,-0.002330958945210509,0.09446209808970474,0.06372467858189201,0.465375345653777,0.24612266666110735,0.4629329574189495,0.07974582079022413,0.016197217935622073,1.0302111437974393,0.5819998587628951,1.969728708267212,1.1780096137889822,0.939108378990247,0.4003777532786368,0.28818876748063343,0.0033385836767229754,1.3994983928331064,0.8896418963818555,1.6320497618057892,1.1660425837943171,1.5209301710128784,0.6682413880871153,0.32694141005628896,0.025841839700530406,1.392251647779966,0.9378081128865785,1.5507918658652537,1.1743591522058394,1.4727309436385814,0.7229921499074387,0.08767641180611309,0.007002921439643698,1.3873560480154687,0.7101762197123452,1.5358515409614988,1.0178472016587328,1.3490492908349758,0.6407951053498955
-0.12836901205289894,-0.12757536573113015,0.036467210047446824,0.09930995160097145,0.05925865292939042,0.45110650389403356,0.2702152829731689,0.46228150794530487,0.055659992046086494,0.021955125553022696,1.017913948553821,0.6952011006141542,1.969728708267212,1.3115849496290264,1.1045620273947026,0.44718511102549413,-0.07130241912362446,0.00991256477679964,1.357191964763559,0.9320090595501408,1.710260999826576,1.2258461104860616,1.5209296941757202,0.6974950868793177,0.12827933274540188,0.03336978638470507,1.3050122467188574,0.9712880223616531,1.6675808299523565,1.2410583542882374,1.5201231527382737,0.7535320053192804,0.06375830913380025,0.01847166848920947,1.3573497253744542,0.748164106791879,1.534841013985418,1.07929666565818,1.3646960709417773,0.680425517896743
-0.13157007988199032,-0.1456653668510222,0.04637976817201835,0.10445749701188285,0.053623974602987345,0.43595276116917975,0.29655222345537696,0.46210317267899625,0.04168328936545517,0.026801136770498623,1.0298936236840466,0.8085019358595888,1.969728708267212,1.455987802951409,1.1809782583152066,0.49843298493798677,-0.07921916304899977,0.015333625564269027,1.355859109972931,0.9852987946910662,1.6967193693838023,1.2896101983334016,1.5209298133850098,0.7264923451296705,0.12296357066863223,0.03997503260449337,1.2878533577349405,1.0234353672522327,1.6794825511580849,1.3125366330553647,1.5210622915228886,0.7850857525555347,0.057845263719660436,0.03134478460806627,1.3396167201800557,0.8127875616932891,1.5318161033526216,1.1448360840208294,1.3821659674009772,0.7245908206640249
-0.14209214358911576,-0.17598120199433767,0.031135358237391293,0.0979072442267671,0.047938044366254075,0.4236175940373109,0.3155042847133198,0.458509640753337,0.030967485195659415,0.03440763952000758,1.0408429986923355,0.8609519533397666,1.969728708267212,1.5222930414549185,1.2148197896787059,0.5253050187613234,-0.07760756416617132,0.01867625332597444,1.3542343824254233,1.00994771006978,1.6894283767310696,1.3067423864029373,1.5209298133850098,0.739671804426202,0.12591629911031874,0.041686619931791694,1.279904913508987,1.0459203636686956,1.6796631770329264,1.3310376848512677,1.520908047111368,0.7984109513453114,0.04637854082024616,0.032680061451912754,1.3320955738543923,0.8422005087713604,1.5224927121326244,1.1593027729223206,1.4097608958494947,0.7352717734101961
-0.16021938677940756,-0.2142392284532455,-0.015774597912874118,0.08907162562538197,0.04095038509290917,0.41499463459466235,0.3150630044042047,0.44506480988110836,0.0365489501679852,0.04310073850165724,1.057944033333059,0.855320167012589,1.969728708267212,1.527763491468896,1.2260689384158832,0.5281331387260533,0.006525201712384122,0.020023691723286358,1.3227699845859757,1.0372100954576562,1.6898373608160615,1.307498925239424,1.5209298133850098,0.7474919527057088,0.1325851721398795,0.03989287252210513,1.2749768020892442,1.0756864700979203,1.6857843304114402,1.3254194689556464,1.5209333153443667,0.8040424301898249,0.03760221011012759,0.02864429123691189,1.3252580682572244,0.8715312605696189,1.5306789614641625,1.1501667423595476,1.4268444661258701,0.7296720168831948
-0.17363126998061612,-0.24874381797305545,-0.0794036153818355,0.08569548936376395,0.03118335593924082,0.40288192257539407,0.2964427648652536,0.4243844990640777,0.04579240652659442,0.05156721118138307,1.0642632831892462,0.8084814937041482,1.969728708267212,1.5064447337043163,1.2227700580509042,0.5205098481105049,-0.051606565249810214,0.020530260317409003,1.336657337768086,1.0543333473059098,1.708209882010372,1.3061948327074278,1.5209298133850098,0.7550944430632802,0.1382524317238518,0.03566354449596829,1.2760248784319126,1.0987093936868089,1.681570734587139,1.3143312221094203,1.520929193333961,0.8079310935308502,0.022057843426363313,0.01991072486539345,1.3241191907140581,0.8894202561712102,1.5177228444672282,1.1344923505197206,1.478436070700961,0.7177757591314283
-0.18767010826570854,-0.27145661354336176,-0.13859487315629243,0.07747966411340224,0.02809792252488441,0.4035292939453537,0.27294789751370757,0.4216548664510182,0.048741515895375086,0.05636011150933641,1.03375127426729,0.7902680196724111,1.969728708267212,1.4965602307325065,1.295814060242645,0.5196920008789557,-0.06324894771200268,0.01931641416558498,1.33976753851117,1.0617601855216172,1.6678375358332005,1.3001868380350192,1.5209298133850098,0.7526265632984175,0.12459341743463007,0.03271108921680841,1.2645327482071618,1.1010277866639104,1.682508248246706,1.2936305306741673,1.5209298208440665,0.799789912735914,0.011441611965632955,0.012751831701692876,1.3196897216488748,0.8787252834496917,1.5061833158694844,1.10140667053891,1.5069552415873817,0.6897398364286239
-0.20412913258097412,-0.27984942697556486,-0.18909218757327492,0.08063636131508356,0.037688131678311206,0.41309848227734175,0.2236941896540044,0.43294781892305073,0.038350024320973494,0.054176357399939284,1.0129398684588444,0.8169463706436959,1.969728708267212,1.531809328969428,1.391202816309511,0.5275419196781445,-0.06699641527389769,0.01860625617549383,1.3297527591116194,1.1048053711211991,1.6769239301703216,1.3365242655502378,1.5209298133850098,0.7615068338226539,0.10002330721560468,0.034176285576766115,1.2579717901243963,1.115454931172359,1.6840642748974832,1.302525409998476,1.5209296941757202,0.7997770053127926,0.023090561916490088,0.013263143919539692,1.3130196587217546,0.8502004627685092,1.545568175486737,1.0825951787663266,1.3940700787597418,0.6711678358814145
-0.18461500896528737,-0.285392414486042,-0.2210984460424643,0.10678817980220279,0.03118124937339859,0.4162506469280646,0.1262950674970816,0.4390523999217427,0.037538013500463506,0.04263235567576248,0.9927864615827697,0.8730945456963752,1.969728708267212,1.6118993738812388,1.4230360240252757,0.540504511712761,-0.08702602285777333,0.017684704163223,1.297159890266002,1.188483942897653,1.709056989731642,1.4124157331095617,1.5209298133850098,0.7787251907810823,0.09875841021741208,0.040054756092740375,1.260332814255672,1.180382588210773,1.667992795286732,1.3519350595441693,1.5209298133850098,0.8113827737931912,0.020176617161660092,0.030307056973513404,1.2780354995369507,0.8701890287952618,1.6025097479999266,1.0992669070540029,1.2960722129092692,0.6779823956229174
-0.15875887580902512,-0.2828229021395433,-0.2365673378160789,0.11848392027755508,0.030147826712286097,0.4231853722271523,0.018948926412383237,0.442887109107803,-0.01705864170169919,0.03753496932376504,1.054274859417556,0.9351922930371909,1.969728708267212,1.650655704485814,1.4241256770827257,0.5480732127125624,-0.0869968998181264,0.0173117141424762,1.2969315348360455,1.2052492327115099,1.7001516985811878,1.423868875658146,1.5209298133850098,0.7693883129082985,0.10006637167316924,0.044110682238829954,1.2533146149740557,1.1755098245520912,1.6702774626131893,1.350140401595553,1.5209298133850098,0.7994617509896167,0.032647821380501395,0.036579816346824896,1.2678482101232118,0.8465746557414193,1.6282144980219035,1.0829921941165903,1.278223073048532,0.664351217643664
-0.13982810168203919,-0.26934575736183636,-0.23054096694353365,0.12394427580163474,0.02741836561303296,0.4331255410718429,-0.04822031053395519,0.4489825405561883,0.02417625385983929,0.03254451292044612,1.0360085560057624,0.9616377719161996,1.969728708267212,1.6570974418870148,1.3885965158779332,0.5467836447272013,-0.08779139829475319,0.015337877816799298,1.2969379349102068,1.200116491833102,1.7086926923812589,1.4156032397885372,1.5209298133850098,0.7542621287876429,0.10287615526319228,0.04623337668092313,1.229338607554821,1.1633914973548656,1.7059093013965227,1.3371168760173828,1.5209298133850098,0.7853428164711043,0.020060004299852018,0.04222030284580379,1.243037830033807,0.8354322280357587,1.6416308586914792,1.0660886958461844,1.2204978822712473,0.6501947401326672
-0.13266670589459229,-0.23896170473648026,-0.21353834404676858,0.12396576995532259,0.023124427213603714,0.45498626030752676,-0.10215208374294378,0.47721984682433016,-0.07105773895877146,0.021390580584902258,1.0885665609974906,1.0132035655780047,1.969728708267212,1.6940235536253083,1.3406415492194506,0.553481838707224,-0.07575945474792267,0.011979960567880523,1.2970977016683325,1.2378975791735858,1.7296934599762483,1.4421175352135613,1.5209298133850098,0.7529410627311407,0.10716356073884423,0.04892941242013977,1.2322180254874375,1.1922421241783037,1.7181224922678169,1.3546659014737645,1.5209298133850098,0.786997146167039,0.05025135701579419,0.055822911300400756,1.2587610666255493,0.8540612972840512,1.727527411317662,1.0712938721676328,1.165351702695007,0.6537490925487804
-0.1278654199614867,-0.22274130079323118,-0.16215604265666558,0.13756314920212748,0.026167552956338647,0.4581645108394927,-0.1426580711538066,0.4852274630867175,-0.0525564405350899,0.01240012800348532,1.1288412420144802,1.065767544528323,1.969728708267212,1.7408415252709413,1.2900531396388468,0.5622529481729414,-0.06634827617627906,0.011143986665483753,1.3175535279329318,1.284491552427767,1.713497844301122,1.4785893924949653,1.5209298133850098,0.7583140587101481,0.12092463009322187,0.05210027683089751,1.2541742499777888,1.2284768937797674,1.6968649465747527,1.3819532684634297,1.5209298133850098,0.7958696911088163,0.0654526339574751,0.06811705912305492,1.287030147746697,0.8791978734209538,1.741466103560282,1.0903956620223962,1.1238442933328867,0.6659134846769772
-0.12132139113202982,-0.2263238431040337,-0.07387457397237758,0.18532654084477107,0.010221914280167903,0.42581424910460747,-0.1401792670577867,0.44210451324306144,-0.005386795973896888,0.01422417153889338,1.137853715064447,1.1283748394664503,1.969728708267212,1.7983182702590712,1.2667367322046195,0.5692778539942392,-0.06576500252838563,0.016058784456069588,1.3274425710291857,1.3298321878272652,1.6920300153199588,1.5178947102223372,1.5209298133850098,0.7698242404287313,0.12242357565494798,0.05697628628966884,1.2557310032763171,1.2689743041992185,1.691899042351932,1.4244961116094228,1.5209298133850098,0.8111222079521695,0.03854163547085689,0.07625267447414248,1.2498328424015415,0.9181506751747259,1.6619416181680422,1.1374978533648248,1.146051987717447,0.6925579702081125
-0.13841028445409817,-0.2358567931851429,0.000339305104207468,0.25164019807206855,0.01470480905051111,0.375615182488445,-0.1426161333359142,0.37084616756276506,-0.010814005191161342,0.019359881280835566,1.156191136649851,1.1802738656769838,1.969728708267212,1.8260072681277277,1.2736370730318713,0.5664237031757628,-0.06343065303950589,0.020653407696520087,1.331522007444206,1.3375677159214996,1.7011624562455525,1.5152557250175867,1.5209298133850098,0.7620503965498238,0.12246767154325806,0.061230557389023346,1.2539077248589579,1.2713885848432676,1.6974948396454899,1.4274375674667619,1.5209298133850098,0.8069693767576901,0.04513541813749094,0.07743488923478044,1.2615293008068722,0.9279296302551293,1.6682458936964693,1.1552553197222764,1.156701563975103,0.6939094888472312
-0.16940699275307555,-0.2356621607273512,0.05942749025234458,0.31382956707572507,0.014551563143933587,0.3391169558985919,-0.1457481749347317,0.3171455388861169,-0.01614465336797418,0.02246604564327395,1.1521975123434751,1.1882015897959166,1.969728708267212,1.8242300753571745,1.301636498061192,0.5602419193626399,-0.06061816072267341,0.022174184403432037,1.3315369733635747,1.3243748627018197,1.6895617886072405,1.4990988392065003,1.5209298133850098,0.7508616484065919,0.11499145115483064,0.06111955954412483,1.251250191353287,1.2598632527292792,1.696470963331077,1.4195125854327275,1.5209298133850098,0.7982047867449478,0.030052365967209213,0.07210297815171118,1.2563954763987502,0.9302613916928723,1.6544536432851025,1.1549042963737515,1.1900084437092553,0.6836394382486028
-0.19493261459405364,-0.23365001394005494,0.11139519352453121,0.36570012549084574,0.00021199562209530304,0.31715204453983686,-0.18608127664922958,0.29787985880491546,-0.0232215035448234,0.019071599572422323,1.1509832634725126,1.2028680280342579,1.969728708267212,1.8458631829325791,1.3132031586389898,0.5601831865798899,-0.0688568153021278,0.01995555242784196,1.3124484302512074,1.337117775308394,1.7284800948000874,1.513696933904741,1.5209298133850098,0.7553797318802487,0.11009012590733544,0.05805044080871366,1.249439116088468,1.2739658283834705,1.6991579533979484,1.4391360194745457,1.5209298133850098,0.8053045226716615,0.011030620292456465,0.06842361455857415,1.2542502018914423,0.9491707872476457,1.634834523900784,1.179185901485612,1.2421187892030663,0.689151083582226
-0.19548309749507253,-0.23148246938458075,0.14422993346692758,0.3908153763708401,-0.01041545626570696,0.3113650077439005,-0.23052244763122076,0.3031730068523322,-0.021567986794960376,0.01635634344795865,1.1578856529636188,1.2097106238274038,1.969728708267212,1.8582564480475599,1.3012359502372481,0.5593907226881476,-0.06525596901265834,0.017439166341396528,1.3154396905020236,1.339507905899868,1.7276037369978712,1.5207220130813,1.5209298133850098,0.7551352776358152,0.11577255529297496,0.05468261113498398,1.2517809216886657,1.2793583674642413,1.7003368454581642,1.4493245421416117,1.5209298133850098,0.8073633241978928,-0.00123189601756365,0.06477351668497401,1.2581778805410495,0.9601193196537552,1.6072522955136088,1.188754852314451,1.3264713197844833,0.6909935426589979
-0.20091209892052156,-0.2263201029803837,0.16842433903472262,0.40403784101191087,-0.01101023632083704,0.3187157292007992,-0.23256600137049843,0.329299105481754,-0.03195070003639299,0.013297435167469155,1.1535222161480727,1.2135612317726472,1.969728946685791,1.8681118043480742,1.3359963108655124,0.557894558629892,-0.07647785532528753,0.015428471359910632,1.31117915374834,1.3392400569340746,1.7323887156951956,1.5272227821360946,1.5209298133850098,0.7543252199311847,0.1027837430335693,0.05242792944147319,1.2491855518267287,1.2833105605074433,1.6953638535717648,1.4594081202193465,1.5209296941757202,0.8089838156114258,0.0032500576567480693,0.06410459038272787,1.2634926784838698,0.9700715025808486,1.5930215977428988,1.195519027449572,1.3322973806025364,0.692795995694921
-0.2002652564654985,-0.22110943917494452,0.18266445969626624,0.4141954662483842,-0.013289139457725066,0.33117111640917696,-0.21538735216693267,0.3616186069479302,-0.03460017114292844,0.009560388845070551,1.1431110921030836,1.2215609382308248,1.9697274531791913,1.8782867228483042,1.3799788568749498,0.5557793298475572,-0.08324365823003077,0.013348232420739875,1.3066229640556006,1.3429561496052183,1.7231926809534415,1.5349448403265153,1.5209298133850098,0.7525358573365131,0.09329249271625004,0.051299181757272314,1.2370257358637822,1.2918395376992036,1.6968024855858908,1.4710818624062478,1.5209304094314575,0.8103552930591049,0.002816003204542684,0.06594113211769427,1.252967259921854,0.9842052869625872,1.6086026931243003,1.205825163981749,1.2826798501953196,0.6955358034785968
-0.20002169291720862,-0.20909793293516785,0.195141353552252,0.41704524600872,-0.010470727534882021,0.34397465214387557,-0.21385481073791257,0.383412313949533,-0.03268860487756875,0.006604244118817006,1.1264512058817893,1.2177838917071502,1.9697359242943773,1.8795415195588774,1.4119133928936904,0.5537720196483078,-0.08665536834823395,0.012329928147838579,1.3008478338807923,1.3363385892158481,1.7388915059509538,1.5370296524653255,1.5209298133850098,0.7495788754863544,0.09013282077914618,0.05124274366646496,1.232407150821881,1.2886052839585131,1.7009723430607506,1.4754534544798295,1.5209261178970337,0.8095123074160501,-0.0011391317171486686,0.06814742187489423,1.249658968668342,0.9855587675709774,1.614513925318018,1.2089113806701766,1.2672056932091305,0.6954102597545845
-0.19253017378714576,-0.20148056269166684,0.2020042329535007,0.42462403717979497,-0.009619975089603045,0.35296900372049506,-0.20532056064566384,0.4009252917000322,-0.02816364657032104,0.004526460345408568,1.1170406759938012,1.2037904737209975,1.9696867413759502,1.8753667177465045,1.4267746956682041,0.55135739782022,-0.08921676667765274,0.011508229153126954,1.2961475009668673,1.324228272231908,1.7346936976272227,1.5370236268358155,1.5209298133850098,0.7472250881997934,0.09099998004285277,0.05026343306558328,1.225659466983244,1.2793132153522981,1.7044058263776516,1.4757892253455855,1.5209513902664185,0.8088083264160482,-0.003854650394451744,0.06826900547970007,1.240823561692265,0.9806298055814259,1.6208634607078543,1.2074158372054464,1.2555195447121057,0.6940509061222054
-0.17999470413612703,-0.1965887536028818,0.19596412752472098,0.43921520780513434,-0.010485963446678282,0.35545185696549786,-0.18577813708877144,0.4057058587212611,-0.01972917505286734,0.0034531652469154102,1.1180966414417965,1.1671136806171234,1.9699741012000387,1.8577081209156703,1.4008880297614177,0.547576107330561,-0.08900682657821458,0.011210098071182749,1.2951724103422024,1.302577675541649,1.7164732962338185,1.5306919419860407,1.5209298133850098,0.7457025099261765,0.09425130294078579,0.049191619332061835,1.2206628112391535,1.2619846777161914,1.7040681242264715,1.4691124184817856,1.520804197579385,0.8081027383283543,0.001446669044919214,0.06750538239978145,1.234578015318774,0.9692800092480154,1.6235529242657694,1.1985806313526646,1.2565741057553252,0.6914336444710438
-0.16629442776022507,-0.1863246358956493,0.19516167736297582,0.4469465159210329,-0.00969002693382953,0.36898280812408335,-0.16981475253560843,0.4184426192334081,-0.00020960646756180867,-0.0016820519505412054,1.0853532613747763,1.053672472771524,1.9682961901707048,1.791970582341985,1.3996823240872536,0.537882314098573,-0.0890230495012254,0.009883995627215187,1.2952455198805486,1.2541317305060375,1.7058168316050195,1.512509013809035,1.5209298133850098,0.7542629610149527,0.09477944529707522,0.04879301267043519,1.2180280182955614,1.2285869396180422,1.7037847284164038,1.4518224061959433,1.5216615722854796,0.8133417231637871,0.004367594054102294,0.0712725451858174,1.2298644866552777,0.947942136802771,1.63013607100822,1.177093639512111,1.252300755359207,0.6902290004919007
-0.13968787487252998,-0.17781790545097936,0.19322259563092353,0.44646264187169427,-0.004376757663777454,0.38909796555023274,-0.14326780851383678,0.4266806761559367,0.019141013296458724,-0.006301624123515612,0.9524812513922133,0.8605991397837062,1.9780943723261966,1.6497474716249458,1.4062542635968658,0.490968599966362,-0.08911367860941621,0.010177530065407725,1.2950052128716947,1.1839036915760672,1.6972273864843739,1.4739320973894297,1.5209298133850098,0.7529816368469742,0.09008154511214386,0.05054306881385723,1.2203641995635048,1.1877004502169508,1.6981250992949641,1.4206311548122368,1.5166645414864515,0.8118999388166391,0.011917520977717732,0.07822369053468224,1.2248701288431578,0.9229500333061262,1.6524758336215837,1.139107642320236,1.2322224805786341,0.6803888713811717
-0.13755872443877787,-0.17197010974665689,0.17703472304161108,0.4420377443268031,-0.008802955906596494,0.3937252453094999,-0.13143207529502507,0.4006072727113592,0.03934581696656557,-0.013092162134178728,0.657516024489726,0.6286750937620278,1.8719612628526674,1.449780901544332,0.9720371798850627,0.3947073252399094,-0.08864356066705288,0.009807783181633943,1.2950250861045307,1.1593292148040015,1.709721444003004,1.455155526615247,1.5209298133850098,0.7518197584884565,0.11162229669751854,0.04754472232346382,1.2113512510325721,1.1985016101727575,1.7329126595094613,1.4119928480550832,1.5457902665295562,0.8180023050348912,0.031830689004188714,0.0843449610034353,1.234253950222089,0.9354653644955061,1.6627815273570254,1.115655245837905,1.2114786112403437,0.6737601101330658
-0.15802162290636587,-0.1576138228279739,0.17113321170261694,0.4345602303641648,-0.006737722959623732,0.37632583086807986,-0.19820936761618466,0.3482142016545905,0.025336813575782102,-0.020625219995047846,0.3171711676967026,0.4024531110968609,1.389039478204357,1.2247525673270636,0.383760358082964,0.2658645655107988,-0.09965769153202758,0.00787216120116642,1.2922690122200768,1.2055336411902522,1.7365676583690448,1.479134516911295,1.5209298133850098,0.7646406516687048,-0.26211017502452677,0.038217315850811215,1.40708993563473,1.2900719073038458,1.431682845024526,1.4543311453516572,1.150827497752454,0.8460035952691739,-0.06710113974052863,0.08851700474479499,1.302388506537818,1.0101167244309044,1.6037980163463554,1.1415107856431512,1.2070691732009524,0.6876682557750481
-0.18762724638086933,-0.16446864821940685,0.18109717887992607,0.43514674529009434,0.01797572299583776,0.3401493146863003,-0.22910816769144227,0.26037512495859555,0.008271091607048649,-0.028650971152846094,0.06548414952349604,0.1718374885559367,0.9392970554929025,0.9506029744332714,-0.03080485805453558,0.1176025300277184,-0.14792991044747777,0.005676166502498227,1.2880780465638135,1.2292596380458347,1.7554670220349022,1.46068537065736,1.5209298133850098,0.752079076259752,0.0638835845902874,0.02806613263721763,1.3649803489548367,1.3560872195930607,1.5472321848684858,1.4568128050119533,1.1721461591595792,0.8483014423760402,-0.3677819704338131,0.08958174097558333,1.3839100806786337,1.064594627036983,1.520976931704325,1.144477317154204,1.1204750266633894,0.6782940890601877
-0.18274317969980233,-0.18289973862274225,0.16891885515772861,0.44341391918331,-0.0022166222217358676,0.29939143117241795,-0.22721758089849434,0.17553531060650154,-0.05713000461306497,-0.041576315200674535,-0.037795458637406146,-0.0011876170106660299,0.7316737404862376,0.7275745099043837,-0.0945126599080193,-0.00963378909856515,-0.17412135554255065,0.004389733648768916,1.277332099631378,1.2848690288465578,1.7609055633566622,1.479532508313045,1.5209298133850098,0.7593842868240754,0.3369679279769511,0.02310366722181935,1.280537523371639,1.44094626325796,1.7029600439082504,1.4898490941022708,1.3511591968004746,0.8690619318151633,-0.3644906409906992,0.09894611553391759,1.354107265315094,1.1283023041398579,1.555741024641182,1.1805490001747898,1.0465587618950425,0.6961933069939767
-0.18947598678870398,-0.1923747667375277,0.15316220235600841,0.4428649605235956,-0.008141535788825255,0.2645092138658211,-0.2502494434549534,0.10567607038969175,-0.16681685697910142,-0.05246227338859229,-0.07450791543711939,-0.050228490859727894,0.6456049072457672,0.5754981165046189,-0.08602686082696338,-0.09309159026007495,-0.174285589885793,0.0035140241536791685,1.2821705666825225,1.3236000694512497,1.7516623289918738,1.4867130330805076,1.5209298133850098,0.7670637989613788,0.3020852699418116,0.018802501521877506,1.3009574071539138,1.482117824586991,1.6714720787041832,1.5081326507871056,1.3534129235524772,0.8865723786907387,-0.36144380713892466,0.10233096653792634,1.3608636349541334,1.1577139934175242,1.588167866545732,1.215128097111047,0.9985417320866642,0.7178235174039113
-0.19222011738398512,-0.20089913119770697,0.14615958798528395,0.439520738467964,-0.013952208962609335,0.23682750695394575,-0.2696698647378112,0.04782917741283488,-0.233574884624747,-0.05782178352429056,-0.08204664403532416,-0.0422664352473342,0.5942249793105836,0.495654394602206,-0.0874785218341223,-0.13027953732000142,-0.17514150565123532,0.0053441210462371646,1.284774974073295,1.3268305914936347,1.7458127597357498,1.4787775400148724,1.5209298133850098,0.773569745889974,0.3095025547331917,0.019867684692144394,1.3027630760943658,1.4786451130054374,1.670121232804178,1.5104816936388765,1.3664003272919119,0.8960658280651452,-0.35896338534300914,0.10622838983763606,1.3643315513793113,1.1594744292813628,1.5907950964125892,1.2350440409131966,0.9796868840717754,0.7364867663898836
-0.18881573505165639,-0.20393392622504758,0.15614983246188102,0.4343643040821143,-0.015551451170886948,0.2277662459934667,-0.28422445348708686,0.01997270776685752,-0.24765547325959655,-0.058721818593547886,-0.07605355168958716,-0.02390825902922386,0.5806838241453464,0.47000236070128987,-0.08723018188305004,-0.1332944723967128,-0.17089234940088927,0.006427758650385906,1.2873043797664403,1.3052902959448216,1.7438580361242588,1.4632055162027293,1.5209298133850098,0.782591003877989,0.3119673964072684,0.021043781700742184,1.3037942038325592,1.4616920819868406,1.6697021643456338,1.5084799150422434,1.3638444077032825,0.9048225033066242,-0.35570251529737545,0.10946144027989334,1.3620666390935445,1.162014301116149,1.5962407387564206,1.2399504938087635,0.973174698523694,0.7522460068316452
-0.1825112804211041,-0.20346572156041964,0.1756500076922132,0.4399520690734069,-0.015369869314083262,0.22437863809663688,-0.2838742111526659,0.007495392674942587,-0.23987091696303053,-0.055768688180747726,-0.07220678491702258,-0.006330085603628524,0.5881451291028956,0.4754969648533713,-0.087272670717573,-0.12983529798610224,-0.167232756677748,0.008987362099232912,1.286323505456944,1.2925390110894683,1.7470429590537686,1.4582540126383916,1.5209298133850098,0.7952366501804911,0.31270763623836506,0.022228486931313827,1.2976404749899595,1.4691565024567952,1.6768441647799754,1.5211709424497324,1.350691841324035,0.91844985570517,-0.3522144154273609,0.1138685972464776,1.358665257183765,1.1942071670558263,1.5835793616421803,1.2509076953341123,0.9720543057438457,0.7745058770472685
-0.1681447229660683,-0.19669806943682952,0.1968239969123617,0.4397205393570682,-0.01824565465001557,0.23546235973653262,-0.2755050464227067,0.022858523183096457,-0.2090846504486326,-0.051214853549573204,-0.06414171947384587,0.048263462190436826,0.6163015942660344,0.5138786984385078,-0.08726539569604926,-0.11369059067876401,-0.1577661755209761,0.013312230617193605,1.2831487462382267,1.2857512328540641,1.7520956698809331,1.4506751291445361,1.5209293365478516,0.7979055511531027,0.31753765207644347,0.025119688188121044,1.29087357336615,1.4789260869275724,1.6843995463454817,1.5302476938538447,1.3383282754608388,0.9246475731146621,-0.3497966274500436,0.1180878059347335,1.3495245845787083,1.2261690738122482,1.5892928288115848,1.2566036512827303,0.9711947254285607,0.7883188575336686
-0.13755239261498642,-0.18762350794398341,0.2199872332594364,0.4319725688610468,-0.021866830570180393,0.25747975178139193,-0.2749951817815757,0.048744491893751414,-0.1253999891660187,-0.042137225201953156,-0.01951760049820372,0.10448881112403549,0.6863267810949555,0.5465166569434199,-0.08726664189253515,-0.09691338859862982,-0.13382808121601478,0.016167187120286537,1.279540284094957,1.2495451151171915,1.758187777895705,1.3997351107472584,1.5209323877089396,0.764771148748908,0.33113267933006846,0.026702889875933715,1.2829825345159798,1.463658010322215,1.6993184073386338,1.5088199027162363,1.3062861441752205,0.9034108537862733,-0.3439820609537544,0.11835855916057703,1.3335804624633443,1.2378780981515183,1.625590799611583,1.2328171471008804,0.9747090931638516,0.77188082814081
-0.07980757088435445,-0.17315141198069586,0.22004858068740424,0.42482941371385563,-0.008726458667551971,0.28761770304152556,-0.20790216380113705,0.0688197452943681,-0.03842247659563064,-0.025138814580776343,0.04887552257411047,0.13752513849287684,0.7941180382165477,0.551598886784433,-0.08726643025875092,-0.07993722024275193,-0.11472261189753301,0.016525228797067155,1.2739080345264475,1.1540482430734742,1.7645621411629504,1.2863223760201266,1.5209149124272447,0.6993973677272282,0.3426251100700462,0.022672893597073786,1.2734642207825957,1.4189192872405463,1.717298382581704,1.4580586810974543,1.2597335859777175,0.8648662466441408,-0.3372053820321992,0.1135896983788486,1.3251548663748003,1.2589198987638581,1.622932214175475,1.1873689352855752,1.0076165217588375,0.7360893354684422
-0.007536646486731531,-0.15650484296445555,0.16658921936469684,0.41106409841430064,0.02874081678247761,0.3130585585844801,-0.11274547513841368,0.08370462837242293,-0.005494335242488832,-0.004347919555332215,0.0924610611860798,0.1605453375765081,0.8631769934747542,0.5481669662077407,-0.0872664675116539,-0.061107699578125736,-0.09814953131005762,0.015198476653889383,1.2678556969819486,1.0418146352312265,1.7589063576599573,1.1551952188467953,1.5210164251045426,0.628087192943343,0.3395840683623521,0.014156600689267548,1.2808935200123792,1.3683235307602346,1.7195635117225951,1.4042119067141086,1.2287387002992685,0.8273572167710097,-0.32790599520974056,0.1051453592444307,1.3331027551722607,1.2910769277329601,1.5828674776697864,1.1473754464020365,1.0365862466640712,0.7024267553876284
0.07971521346184526,-0.13937633229468338,0.08858800249278119,0.3948086501693564,0.0966368660678292,0.33486185956055514,-0.07343136234393305,0.09790432737532047,0.00942753783858395,0.012704652344725254,0.14844891940062327,0.17771620074534974,0.8829721333766282,0.5365658263772286,-0.0872664600610733,-0.04544683840587762,-0.09696106078257874,0.013104888525779824,1.263936161655886,0.9355014448686677,1.7294369880385505,1.0233643078017431,1.5204233849279167,0.5589352778336026,0.3245821885078028,0.006074186427194555,1.3271592896817348,1.3251845659656332,1.6848604239701415,1.3527733461848708,1.2381394656716216,0.7943481538482902,-0.31446727778046346,0.102066393526307,1.396260439535863,1.3303554890776925,1.5261185281783922,1.1159701369728245,1.1306820326697697,0.6784728599015086
0.17531727361190738,-0.13348717239936467,0.0010900716468186505,0.38172660050945495,0.17456407550048425,0.3463712785227713,-0.11836929487083486,0.10433530794780814,0.03921642521898456,0.028175380964582105,0.19867981039623317,0.21145257943726195,0.8090165766025985,0.5441791553546136,-0.0872664600610733,-0.022526107213552384,-0.10368479172931191,0.011319227167007884,1.2841799934569478,0.8562445213363449,1.5834651550742158,0.9046748819611599,1.523887069965792,0.5026462629386595,0.29799709873394786,-0.002228376680489143,1.384752420435179,1.3075735796840526,1.6047610528639975,1.3142099840242305,1.3072962280833265,0.7719155647648889,-0.30654755611061646,0.1021103437595807,1.4425046049287291,1.3929532481541806,1.4178217954603083,1.0977995944918222,1.211355035215514,0.6663151989617854
0.2929104866123021,-0.12466222460596788,-0.012532782071801165,0.36670791133136355,0.21060231153400788,0.35834140367000705,-0.09618491189929491,0.09331102516667443,0.08737747870021101,0.04541841064991917,0.06288825481731934,0.19568064631692986,0.7551661318208308,0.4982635367479485,-0.0872664600610733,-0.0165658235482116,-0.0014027599010906899,0.010971765559425181,1.0067975504135296,0.7343872077635951,1.694075733796183,0.7441257004444936,1.4880208865367521,0.42862564082913385,0.2822017470995587,-0.009803014213539163,1.3274079158444467,1.2532679031733363,1.6427950181651836,1.2393840356762778,1.2742613015592585,0.7321873893442147,-0.30675435251004324,0.09829069272243122,1.4402993103749924,1.4247437273411747,1.3416443477989743,1.0444884660979048,1.2074778790631258,0.6362623749332625
0.3865376935002469,-0.11414628497094972,0.0012907048456097688,0.3518004002763686,0.2561475073789434,0.36535194723001246,-0.042552684104246154,0.07318729949655273,0.14122301567265294,0.06570274784601572,-0.0730366688793831,0.12150048865461038,0.6571594002032591,0.4041602971271723,-0.0872664600610733,-0.032077796261363326,0.024119303920926306,0.01216629498232414,0.7220251899937329,0.6080200213078627,1.6320657152364706,0.5775691995034866,1.3094475185233732,0.3520856190799181,0.27165698398230975,-0.018097104199561172,1.2720868016537006,1.2214486605749468,1.6708402247152234,1.16606709344124,1.1851324999834223,0.6941829766565354,-0.3067781673966821,0.09477162084820874,1.4403447807852319,1.4944331477797743,1.2966329262118292,0.9985467716288652,1.2081465932696345,0.6080764976242163
0.43267016916348244,-0.11181120840203233,-0.00718828394163538,0.3439202192191785,0.3192353505933649,0.35752526780037347,-0.06734298847285133,0.04241715784823537,0.18856109307487653,0.07384594451038505,-0.06008941691000115,0.08471083062551531,0.394715075352494,0.3617060143792995,-0.0872664600610733,-0.030001810456247932,0.0031628171657450787,0.008605639588520108,0.6260108025204203,0.5447666881027482,1.3141843668429936,0.4723376569182395,1.0513242727253633,0.31257341685148643,0.2715661211937361,-0.02641855563599703,1.276943036924043,1.2476292165066192,1.6159819848708328,1.1438745752536397,1.1907645744675255,0.6861867491702577,-0.30679557892039366,0.09754285276088695,1.4404689163071303,1.6098027367640677,1.2862370732294415,0.9993922199812357,1.2080351132581666,0.613263485883283
0.4529172778129576,-0.11558326146437178,-0.0034309477379506114,0.3409607067992393,0.38391718176851425,0.3475583594067783,-0.0945709411381181,0.004470849317521116,0.22605483472957508,0.07395855923934463,-0.030921476447067133,0.09112260310960439,0.1856800571033185,0.35199736033283413,-0.0872664600610733,-0.024607290608111326,0.005820016603942234,0.0053688125834250484,0.5869080290723853,0.5177976077462766,1.091190682607573,0.3927407301665717,0.8023019866324965,0.2853499987629903,0.27156963327367695,-0.029192050041649924,1.2757944746093404,1.2563150026692467,1.5843950039426353,1.1171197617284543,1.1897855974030305,0.6783392287629728,-0.3067978322505951,0.09986375908836707,1.4406104626237872,1.6591372906280186,1.2773355577857286,0.9940441603411045,1.2080596072410696,0.62172726661272
0.46171567718730444,-0.11143911054381195,0.003448861515635813,0.32958072059458293,0.4243257604666538,0.34876540928773914,-0.106153013072357,-0.007871882783395233,0.24264610432452854,0.0725627988831175,-0.03722971395098854,0.09369056849434243,0.11992132457755116,0.35997452243603134,-0.0872664600610733,-0.01494180572254155,0.014531690761366452,0.004373682318763874,0.5819586887701379,0.5110770871140173,0.9244068556542551,0.3601490756384477,0.602892290067618,0.2838397988280339,0.27156719026305165,-0.029882712453917364,1.275811623387776,1.2600595690013334,1.5647082527478535,1.1130874183397652,1.1899529192363578,0.6850316942890893,-0.3068049602100331,0.10133445373947168,1.4406914567242168,1.680156327555204,1.2703307816192966,1.0020752872623275,1.208058476448059,0.6424599390252324
0.46663569488623036,-0.10536221826747824,0.010902627863930738,0.3228144813519696,0.4443874474068143,0.35690927830979274,-0.11284195352027847,0.005252932430381587,0.24617361824056802,0.06942672007828445,-0.050297195479629755,0.10252696901254679,0.11454137574894027,0.36243532735333095,-0.0872664600610733,-0.005556680924821792,0.02531910684506434,0.0034083045086165465,0.5907504271728593,0.4972152936784074,0.8300847189418288,0.34343758184755213,0.48105782280602993,0.28450727503454315,0.27155325386304496,-0.029033865404566407,1.275694402818387,1.2315480822996068,1.5499579528086016,1.0929405245764672,1.1899223490379776,0.6801247944604008,-0.30681282037761026,0.10161474591229148,1.4407329396583115,1.6596476856758977,1.266240237515941,0.9929238067552092,1.208059549331665,0.641526958234481
0.46784313624900625,-0.10551601306739793,0.01740251876947818,0.31757974936557987,0.453630482479167,0.36442706339798686,-0.11054861989291863,0.023899336121933845,0.24617998189249407,0.06531782003715043,-0.05671804799646375,0.11955430710834442,0.13116401748411746,0.3818931894395944,-0.0872664600610733,0.012242526083493702,0.03663014289546872,0.0016370405672400084,0.6120453513862056,0.4955720891317817,0.7794737550382325,0.3434764288187841,0.40082453577795185,0.29371622343790266,0.2715513580759502,-0.029689202062887318,1.2756700860897972,1.206598558930407,1.5436348968669689,1.0740730606519595,1.1899273050387429,0.6771712302144477,-0.30681330828468684,0.09912794871643546,1.4407525564352128,1.635313329707505,1.2628992849513805,0.980811267379201,1.2080625295639038,0.6363099290310185
0.4665969213528031,-0.10323742387203905,0.023991349018660964,0.3109369525459168,0.4604088095132266,0.37417071199932467,-0.10577239942937174,0.043336650354531304,0.24462245024986506,0.06156797178165904,-0.04798861525198434,0.1360066289313146,0.14771676958624413,0.3993887001472664,-0.0872664600610733,0.030203146779479564,0.04729508304707833,-0.0009512179894044368,0.6348820865764553,0.48989291470476654,0.7514079800373594,0.33926435969388524,0.34928111123414846,0.2999572248385628,0.27154658580531577,-0.031601673286658236,1.2756724891944686,1.1748241426187978,1.5427737200761953,1.0475313828938109,1.1899253129959106,0.6702907113898736,-0.30680495500564575,0.09431381386294707,1.4407609043403427,1.600291768981057,1.2615318227817853,0.9567542537216169,1.2080492973327637,0.6241233495315187
0.4671809861480986,-0.08836197497087953,0.03558080194600606,0.29719574078154654,0.4662822899456317,0.3962229107325393,-0.08462427361985944,0.07830814963823268,0.2333653931070514,0.05450103236775557,-0.030041832473675853,0.16522601437548307,0.23083807853505006,0.4273505626379831,-0.0872664600610733,0.053544765173015596,0.06297864089799406,-0.0051523096114078955,0.680924160692065,0.4813033110961165,0.756960598478545,0.33567898138187846,0.322110811089493,0.3017983125338375,0.2715440413345656,-0.033614007419185,1.2756655964835104,1.1327208483992177,1.540555986324675,1.0121503889357273,1.1899327261456043,0.6579177215847953,-0.30684228068529135,0.08845354375070276,1.4407720565795898,1.5495188575962706,1.2560694671328159,0.9202056335914666,1.208128809928894,0.6046645515201036
0.4683983214750496,-0.061715586858974575,0.04950765836496524,0.2719456107611003,0.4685482701818555,0.42674246725368786,-0.05055981328598638,0.12773312133259004,0.20576221274637965,0.04767741020917223,-0.021451821641846072,0.1947386552144232,0.4723432134578357,0.4654358255849623,-0.0872664600610733,0.07826858646192894,0.0888238642724976,-0.008968494196800627,0.7668191633940548,0.4857277453827233,0.7866841017589631,0.3491413591596994,0.30826288295551657,0.30911461688552694,0.2715194773212906,-0.03668597988589361,1.2756137200996738,1.111354048612853,1.538332107666545,0.9992237906135933,1.189888724830506,0.6559488902862297,-0.3066101326809537,0.08237183600053855,1.440748957236879,1.5181594404886747,1.2531795382364075,0.8996095924518487,1.2076659202575684,0.5962824215932376
0.4662339793808496,-0.02961519350688765,0.05315327774034018,0.23899622633629475,0.4587904664267183,0.46575023754329203,-0.03683967243740186,0.18677953822247848,0.1778595721830148,0.03924459519460217,-0.01856909063035488,0.2412067836445067,0.7123084005574424,0.5158684213345902,-0.0872664600610733,0.1080162060723568,0.10735038714960149,-0.009523338265822997,0.7969453317177851,0.4984749999062599,0.8213846639764996,0.3746803468845535,0.28448616809066557,0.3209052272522407,0.2715782463652282,-0.033890559042425765,1.2757810666156981,1.0839625179971044,1.5346837239731972,0.9890145280391014,1.1901431047062012,0.6564815447192144,-0.30793295639638063,0.08192851142247924,1.440775233052832,1.4683156258959558,1.2521256683765147,0.8795232297481805,1.210363507270813,0.5912904703440792
0.46557617411271707,0.004059018204846804,0.051507624546415574,0.2056895163380653,0.4466972727417539,0.5059789649048763,-0.0348963578686169,0.2472567344179738,0.1737105330712966,0.034621840094950423,-0.021622570981700655,0.2833222971637907,0.7806190596098785,0.5546783164092705,-0.0872664600610733,0.14125158696247847,0.11292128094532383,-0.0065875210665776755,0.7828370481220935,0.48879542000871473,0.8367085021510465,0.3816527462860016,0.2626530062216541,0.3266528077906716,0.2712918738659738,-0.02853727871520325,1.2744768011692034,1.0212959417304084,1.5340166173290475,0.9497707772987288,1.1886577870658641,0.6474514809077917,-0.3002174648205168,0.07934024001856307,1.440635467552081,1.3815651216604605,1.256853178092644,0.830501195106897,1.1946412324905396,0.57573158830506
0.4655536585598675,0.03571188037068602,0.04180470371960044,0.1690608517810351,0.44737967452091565,0.5361726377265307,-0.040475284303533164,0.2885688082722942,0.17335380518022794,0.03608930221545812,-0.030731699389190285,0.29851105588830534,0.774729108478158,0.5763633852322354,-0.0872664600610733,0.17113824513347725,0.10747628744619578,-0.0020276358123578974,0.7653258262505171,0.46605309233730613,0.8081907134278511,0.38152301779379216,0.24561570088916285,0.33288741301622266,0.2730334073440749,-0.023942449944892745,1.281719179080208,0.9520750276668088,1.509494397488335,0.903248843581197,1.1973121058411973,0.6384928069491708,-0.42541031337706375,0.07233972173179931,1.442065877041041,1.2946223436904587,1.1976071931803196,0.773837535318933,1.4281389061636993,0.5602542053785207
0.4910487410219318,0.04998024298774506,0.07047702511083793,0.136000812155395,0.42516622428736744,0.5518840754127068,0.011449470191100045,0.2940792039935229,0.1656086723382699,0.04643135465283161,-0.15045422318987903,0.24493513901350358,0.7375453716658897,0.5604585672265707,-0.0872664600610733,0.18677540613387084,0.0882169267626754,0.004406508413250414,0.6225706689458128,0.41756354491051595,0.8454260502659008,0.3780809926023799,0.17824151291510956,0.34500315137826265,0.24245181154201229,-0.02206973346274461,1.187694358066217,0.8750022179844442,1.6718512921338722,0.8577619261437854,1.0911139073496665,0.6351752804679133,-0.550617547572269,0.05685737011138367,1.4174592140998454,1.2064154168444694,1.2119981192891505,0.7203179949108384,1.5343496799468994,0.5465490801071281
0.5026735720374071,0.015093430217177574,0.07398472130044334,0.11628992794520217,0.401937281261532,0.5341740243467455,0.05669154744887716,0.23874121942516088,0.14018750584878212,0.07962850303271517,-0.2962913958692711,0.1329909227661308,0.6335182726993499,0.46112540181179534,-0.0872664600610733,0.17937120357877975,0.06360396461834684,0.01632835625101883,0.4656052323941894,0.27816098124907734,0.8456776999572846,0.2735047899313758,0.10687362056848548,0.31599400271327843,0.1348780612032163,-0.021527070434503384,1.0604960249145692,0.7106061714094252,1.8289715267285551,0.7312182880709199,1.117416926618322,0.5912493372736533,-0.2651463385429814,0.021801401749761938,1.19907558310154,1.0420669471851391,1.0147342071598306,0.5997170806948239,1.5186272859573364,0.48303070110062307
0.4563740355569756,-0.011740402405418248,-0.008264268555628448,0.08388340252793833,0.41830138073846335,0.5079224356476629,-0.02061894388744359,0.1750454180815658,0.11351726861062453,0.111222302344065,-0.27454099096400214,0.032127160990062145,0.43721869289536025,0.38593408075480207,-0.0872664600610733,0.17923323913510206,0.029704839489142057,0.022769064893596397,0.4550811345598939,0.13338753998076172,0.6353766989382466,0.1785101899209691,0.12711448345303666,0.283092608224003,0.20696668932055431,-0.02685302349953858,1.126678869585942,0.5351837861253136,1.6851058723712269,0.6104530420184001,1.0304749569388383,0.5436077080624638,-0.1083505914988371,-0.019369040657178045,1.2910651436437919,0.8771473208656356,0.8748822404120427,0.4891727868132761,1.521324872970581,0.4211982112966979
0.47754210179440637,-0.02518929928897186,-0.005333279824494924,0.0537210401588367,0.4234664103819378,0.48539598220037516,-0.042197321527833724,0.11821821331554042,0.08850269083599058,0.14080911767970977,-0.3018574909613261,-0.07765769153256977,0.3555046286395794,0.3477567682324553,-0.0872664600610733,0.18034332112511955,-0.017587000108932938,0.023718238913107686,0.3765319126051042,0.02482465374685074,0.5874843079346708,0.13511333905321496,0.08497022003766129,0.27739156499522,0.05348628016445314,-0.04063459689833798,1.0133780785523732,0.4791936644854124,1.7896837836917607,0.5906039843583675,1.1659797604309126,0.546165889610067,-0.19835815352384503,-0.04758504121029262,1.5562797099928254,0.8858634481318837,0.9512869053190748,0.46611619982296276,1.5208619832992554,0.4234581802112385
0.5058830994794797,-0.022056808154839347,0.014812320124345173,0.05178313795159286,0.39948771176891557,0.4889030826783423,0.0018955405583797615,0.11604773398145463,0.10433135034179493,0.14985434121035876,-0.3476019654257709,-0.10239230030225814,0.3687073991160343,0.33281862542490914,-0.0872664600610733,0.1710889828184767,-0.017293334757407092,0.019477955710918465,0.31020838835947395,0.012673910990128386,0.5929264247214024,0.11374969315101682,0.03217295217788715,0.2697057892844946,-0.010667373912580772,-0.05258089836699553,0.9279896389095454,0.5371016461287741,1.8619394884174594,0.6180905848232955,1.2814122910385648,0.5592079628449657,-0.1802117731994333,-0.05233618066528553,1.4723712344218456,1.0074026613105265,1.0842725510483282,0.48929189974537446,1.5209413766860962,0.44220757525121773
0.5084001808104119,-0.02222158879558719,0.0016271721335145623,0.04864275923149244,0.380189420115012,0.4962161302871671,0.01537067235147618,0.12858524841422778,0.11826483540414946,0.15097595973362016,-0.36239802127066184,-0.06895823799607717,0.358319326184173,0.35672028447513,-0.0872664600610733,0.16248349900504702,-0.015507146927493106,0.02051861307438592,0.28446848697290766,0.06421949251197817,0.5307193237088785,0.13716396241871553,0.005630240215420989,0.2744437295422212,0.007860576860030274,-0.05395040517636875,0.8877149740312424,0.6146281694186015,1.8617676569740114,0.6691717406452988,1.266852075465032,0.5781812003312528,-0.17666142483043723,-0.0450122978949371,1.4389734448562033,1.0977364460491617,1.169863761827536,0.5353746647788665,1.5209277868270874,0.4722649273340747
0.5108752559883195,-0.02080385804184819,-0.007881941098986787,0.037931901480116895,0.3676336018773341,0.5016525904473184,0.012539910233078449,0.13983758149903786,0.12873165987525226,0.1560884994180264,-0.35661902752481367,-0.03547277342235718,0.3389912278850197,0.3704237850452853,-0.0872664600610733,0.14850987536372875,-0.01792895561878794,0.026584964042128907,0.2635496448602559,0.10936005253332017,0.4637632815165195,0.15389820914694335,-0.005706717657503751,0.2730308192378426,-0.004268844881061997,-0.04919163630989226,0.7836211601079403,0.6681012909295746,1.816821103345549,0.7013541662787955,1.2011827037874219,0.5846144074194803,-0.17212040149378977,-0.03749534920434365,1.4431300853570845,1.1422024911038564,1.1697248487613576,0.5635713382250076,1.5209301710128784,0.48811875298975266
0.5192693384434175,-0.011581073912439156,0.00590317563468454,0.03020969095859215,0.3683522418904222,0.507419909836896,0.015261436539222118,0.1401876208369236,0.13590515979626072,0.16330760180848441,-0.3673327061198267,0.0172572010911915,0.3275104203220116,0.37364559933390623,-0.0872664600610733,0.13329687452662128,-0.01687110348925656,0.03231556266037669,0.24423372175913244,0.15094397351806835,0.3919273679980658,0.15219007801175535,-0.02689014750281658,0.2611877926380563,-0.04629765473204373,-0.046395908030379414,0.7794063629347304,0.7143739218801357,1.0316728355534805,0.716426364594352,0.6514273303157337,0.5814778933956356,-0.1693492337247617,-0.032297721850994186,1.442954452778292,1.1798468803789832,1.1777307147052103,0.576100253001008,1.5209296941757202,0.492064644452248
0.5276917168304781,-0.012810538300398844,0.015709640962560122,0.026712685632726024,0.37184008406697683,0.5091868134488832,0.02033246284619866,0.13026892577761,0.1358405186691924,0.1685457996879964,-0.3756164334061745,0.09399753047812297,0.2935874289552237,0.3851930505518752,-0.0872664600610733,0.12885872856952216,-0.02432472771404472,0.036721977209237915,0.2274355491850022,0.17950717992953424,0.29444264606133047,0.13546210154467186,-0.03579901149909653,0.24977930766594958,-0.11723566780012992,-0.04208840468349584,0.7981611779796656,0.733571432420689,0.4300763472423097,0.7145159374053701,0.2011686317342965,0.5749752370977563,-0.1751357561593983,-0.025654403013903086,1.4472765290560847,1.191101518236058,1.113843467590888,0.5759601350937278,1.5209298133850098,0.49030373015772616
0.5316322462821848,-0.019642051020096814,0.01587575981849053,0.02844940808700217,0.38828471174147877,0.5141383226414182,0.022393753773302914,0.13040817381477196,0.14247860310258037,0.16774768827311415,-0.3743474333630758,0.1844163093126809,0.31017546347248115,0.4265109586430899,-0.0872664600610733,0.1385715243674654,-0.026356092354323003,0.03862491835107914,0.23607028427452212,0.22948295940921587,0.24543703827197527,0.14827939292439313,-0.02937927031921346,0.25876445227447775,-0.11681712526018577,-0.03765723909822477,0.8181926843724017,0.7719165358323694,0.4157837832408011,0.7353990297675541,0.17143461073455285,0.585904444240466,-0.16939495119082917,-0.014182214519227273,1.4479309447253794,1.220177869612311,1.1365047540002848,0.5970322845738905,1.5209298133850098,0.5053638396477401
0.539789843884751,-0.015446635363655375,0.02083835638296675,0.022074150131322502,0.39722950700606907,0.5215048438046165,0.029325851598442802,0.12813576130329946,0.1532766261605271,0.16718349679541675,-0.37456209250684486,0.21512670636990713,0.30925938924424906,0.4235833019730171,-0.0872664600610733,0.14253873075438014,-0.020328658000397702,0.03932431557632143,0.24319864738313002,0.22139501449597968,0.215063902654339,0.11752678080121823,-0.032217164558863816,0.24774702930816614,-0.11298038614691328,-0.03451114932373935,0.818660539164885,0.7585518775132736,0.3864126759787878,0.7088023731326082,0.14586299139078193,0.5738319833937766,-0.1673883241903253,-0.008408515002108208,1.4477975258648192,1.2150907247953446,1.1121079986819644,0.572527319091172,1.5209298133850098,0.4956821005905855
0.5457078370014555,-0.015572752826873634,0.024085557518423083,0.012361563190148174,0.400422058516395,0.5341495034773331,0.042230475176892886,0.14707353783175953,0.1582639571936193,0.16450426499523535,-0.3745434860083295,0.2606453231882318,0.29769438676391985,0.4707645384321442,-0.0872664600610733,0.16610308388190878,-0.017535044946225695,0.04192514140137702,0.24280556675313683,0.23605983649233236,0.20499800740655372,0.13162631879690978,-0.030592226523978024,0.2578718718543937,-0.11187361918635608,-0.02844170544961883,0.8131275832381807,0.7542676273330757,0.3732182698851966,0.7092452738540029,0.13756806555122508,0.5771618150132237,-0.1676962775971838,-9.649895321125434e-05,1.4478103999256138,1.2071778324005682,1.0916223519220016,0.5700197244938188,1.5209298133850098,0.5002203837325278
0.5488498952744085,-0.004750334919431533,0.02832248002350056,-0.002547479830088835,0.40825200467386336,0.5562063145691758,0.04591678098200122,0.1831637576849656,0.15781084889709204,0.15875999756640546,-0.37444023260755616,0.2918640168318025,0.3069857072097856,0.5187923528499839,-0.0872664600610733,0.18566949496022386,-0.01674781942081058,0.04125854430616379,0.24384881462795877,0.2557597690949533,0.20265165083237477,0.1592117155540789,-0.02974597822802736,0.2670658652218264,-0.1132151055847961,-0.02518271080581673,0.812535280592748,0.7612240750499418,0.3523351695214795,0.7176543668810961,0.13795973102861975,0.5820278851516689,-0.16763909305186267,0.0067095453909198485,1.4478059463262287,1.2099247774844555,1.0957679608847366,0.5657533226159653,1.5209296941757202,0.5060401906061227
0.5538193506185511,0.02900043244985361,0.038960413416090994,-0.026628684052250096,0.4204659761524037,0.5868076143004379,0.04817741694176765,0.22707455506096902,0.15582358440441485,0.1499659689111515,-0.3750789416222849,0.31715704368446457,0.3493135561308353,0.5595329895157861,-0.0872664600610733,0.2093377740920199,-0.016948534531754034,0.03553082603236519,0.2478118985891342,0.23652164304927775,0.21015179037742637,0.16605120729464315,-0.037868043833726835,0.2623525092015902,-0.1130886970679101,-0.025466183515157503,0.8128788209815888,0.7386645006441829,0.34935127142753203,0.7089643643170902,0.13475594811980637,0.5767733654064531,-0.1676448077319425,0.012194928838696576,1.4478104033160941,1.2032822588198016,1.092615455897595,0.5411193538647873,1.5209305841768155,0.5025259789346429
0.5580724416061201,0.08061273191738658,0.05455265890073703,-0.05409749324801136,0.43425968211394234,0.6158957883495245,0.05651519627684336,0.25683346811143715,0.14778915942732399,0.13392332691245815,-0.3584627714241192,0.3234073049786147,0.39906216301744374,0.5805610023667785,-0.0872664600610733,0.22353969646598684,-0.014750173902382799,0.026072164120171805,0.2814490771063081,0.2124207295451963,0.2222119538755546,0.16464029467824642,-0.0498693570604841,0.24678960547647938,-0.1079034810637859,-0.02966272145662284,0.8419725723369667,0.7218713679004447,0.35818191908460967,0.6912001292046428,0.1516864149236838,0.5631939927465681,-0.16762239434274254,0.01853824236490609,1.4477725228351945,1.212196739053563,1.1091293818036576,0.503943302457786,1.520925234880328,0.4907051825618311
0.5634925441394758,0.1344255823663204,0.0753490942084273,-0.07190738312383016,0.4504447157269044,0.6387228716219921,0.06916846878258708,0.2775579285431775,0.13091843954125368,0.11504077621490892,-0.301821346626754,0.32961662868048397,0.49151897688096385,0.5943368319358433,-0.0872664600610733,0.2316350424333779,-0.006274103053524469,0.015243691792213682,0.3517786964892796,0.19877501377948156,0.24510593450415244,0.16303320178196268,-0.07224274411017702,0.2308638138491003,-0.09891560180822605,-0.03550154614273936,0.9057449624535707,0.7247065663405514,0.3758178398911591,0.6779254234827147,0.18190487997184698,0.5514277972798027,-0.16756767284578566,0.02759817967549453,1.447792460215919,1.2456255321887841,1.1098296202219116,0.47084930100063954,1.5209562359409527,0.48199080242706505
0.571989422568689,0.17034042100247243,0.09070074070028875,-0.07333875096596959,0.45921032573175913,0.6536019867597586,0.08365642566729718,0.3043221531264202,0.11732612695201684,0.09210276489270036,-0.2496747786986547,0.36543839284991214,0.6076746125270066,0.654400446309164,-0.0872664600610733,0.24642633003382947,-0.00186287554588056,0.005402564676637515,0.406783021859341,0.25950380051095273,0.2833582731440609,0.22313515374074563,-0.08846454830910151,0.24418469480280164,-0.09675965681926385,-0.03941179543682737,0.9468000128407523,0.7919083483796878,0.4320120741279454,0.7153249665738777,0.18342658460343653,0.5672583624771429,-0.16782764780236592,0.04094016284971094,1.4478922406967996,1.3207531300827904,1.0883090605914796,0.4826801851544363,1.5207754218944511,0.4987288073671554
0.5752950253068926,0.18006055875849802,0.09520827548682212,-0.06762828288835071,0.46534725062472826,0.6595455274172338,0.08895670926035196,0.3243001812181101,0.10975870727831598,0.07606233892044804,-0.23717768350457172,0.39041698936784086,0.6488652073007934,0.7016416531780879,-0.0872664600610733,0.25770477882763354,0.00028040479884936523,0.0023509475179503895,0.46070413532178356,0.32433550798920036,0.3056015546716519,0.28139641852169933,-0.08660474537413007,0.26465973027465806,-0.0883825316652233,-0.035590495350553544,0.9897033238912736,0.8434575796805414,0.46466101185589215,0.743373920113289,0.1999804431294959,0.5828161059250467,-0.1663657784953595,0.055255908417315064,1.4477072550032597,1.354322430149009,1.091658622128158,0.4935500668075712,1.521831450269762,0.5140137032301624
0.580987624612142,0.17516209607238256,0.08800536937443745,-0.061555224622306316,0.4591914563184441,0.6618748897849768,0.062417886896955446,0.34272421976133954,0.11464277189542814,0.06731259601616618,-0.2649274333480816,0.3689895209192012,0.6209628190061205,0.707219575859174,-0.0872664600610733,0.25427383570947754,-0.005344559121728575,0.004161450875747137,0.4654884882890053,0.3780291909786347,0.28301005229879445,0.32988219568346927,-0.09003588000356945,0.285563587769442,-0.093590681200616,-0.029908264875920586,0.9665464221142802,0.8674192860536064,0.4347848534516238,0.7526000248558555,0.17999581840054588,0.592301759567955,-0.17481129090126865,0.061761329694310946,1.4487898926143625,1.3365849440957636,1.0815690590388676,0.4944308497799948,1.515664702796285,0.5174198059091796
0.5717509876135676,0.15363831118817248,0.0605962733537878,-0.06350847673141494,0.44270916878159977,0.6518167876749724,-0.022806245433133622,0.3301840612709324,0.10397778954929071,0.0708181826785561,-0.2923437992663917,0.27802365275780244,0.5048005113015825,0.6197548865661707,-0.0872664600610733,0.21413421933459834,-0.021918159207081043,0.008325784074606603,0.3877750820775907,0.38618888194854034,0.2388597575267433,0.32114940744414805,-0.05881745858378643,0.2831841701635328,-0.07561822334755852,-0.027212757591806556,0.8433750573888998,0.8362656276380664,0.33783378993691965,0.7092272610794578,0.15573756994342655,0.5744898498261756,-0.09158465970600173,0.04928374115644704,1.4343612133032635,1.2485699016893297,1.1745635301586697,0.44569095658971336,1.5516746589348172,0.48410014996349715
0.5556608662263525,0.11430672708733534,0.034420579548955006,-0.09136834476181235,0.3420206675553903,0.6204425111429958,-0.12351449706143412,0.27148358986646304,0.061655339362170214,0.09692795721303313,-0.35252288478904426,0.1316839749665272,0.39938961774687265,0.4452290210165143,-0.0872664600610733,0.16097402774365455,-0.04342416887498931,0.014225415830353052,0.19568470310297081,0.2737920865399592,0.19585060257892728,0.21521938367576315,0.023666021177826308,0.2414365360456119,-0.054697022592146566,-0.033314336790566515,0.5954984936426684,0.6465975304512465,0.2957913744368245,0.5628349783070682,0.1475885769477343,0.5079319713736835,-0.20382345319472084,-0.006140380155875147,1.322962655142307,0.9846872296756475,0.7358665516487766,0.300474564980323,1.2413066686623786,0.3895246249891667
0.5969845549170608,0.08719884311786688,0.01243969561125292,-0.1203861484755429,0.22300610073393967,0.5966891257497096,-0.17394758157423584,0.21407963147342407,-0.0281373556635516,0.12853497488845878,-0.3609188704224848,-0.06646127663171308,0.25396649432670604,0.2841319126480673,-0.0872664600610733,0.13169453159161115,-0.13097212586522197,0.021582557029377954,0.018933418014037556,0.09511048835410839,0.16440875708751723,0.10912260340274482,0.0866912961879211,0.21905985120281257,-0.14988610680735245,-0.043009899745232276,0.37880262532467524,0.4029233973553832,0.31158089110536646,0.41928627939557833,0.06962562257909291,0.45516630700356026,-0.7018331356422877,-0.07218870927449379,1.133322766684293,0.6908807871827222,0.1318019313888217,0.15562923468725648,0.48375666414443946,0.3001075138139777
0.5993031289797187,0.09031978165635476,0.004477550197748701,-0.08626528025792325,0.2029568623662402,0.5976632546646197,-0.2039312879990392,0.2058094585816608,-0.05844950949321833,0.1124888763797975,-0.3648705763214684,-0.10987870936812799,0.1657045746520925,0.33936349706845065,-0.0872664600610733,0.14101670011115156,-0.17499725520610807,0.020041687407692955,-0.04666672533842073,0.20198204096266828,0.15311363720853174,0.23138958805657073,0.12121422288767711,0.28254048022800743,-0.17915465354716004,-0.04183336145184146,0.3180955931188304,0.48606399464525857,0.3209329208823194,0.4945489215972887,0.06472669991922052,0.4998402862011776,-0.7484871189748875,-0.06219508383206949,1.0841045876004998,0.7156539453581331,0.21623942566202758,0.21031366049633088,0.27904390932756895,0.3388045079268693
0.6055315080288463,0.09299283430183708,0.0122157447230795,-0.03426894653202899,0.21115721223093945,0.5973173857616754,-0.20888781055926733,0.195248968644964,-0.06881113234267427,0.08807875677112578,-0.3751878391218131,-0.12071823151580842,0.12864413694716997,0.38695868670058836,-0.0872664600610733,0.1277897875921312,-0.17857921936372304,0.020471213725570286,-0.06518008399742041,0.35543465188813445,0.1512660346882878,0.3480526879175521,0.12869726596092876,0.3257727801155578,-0.18043790265188825,-0.034225920711106916,0.31321700809012765,0.614494924896541,0.31131981987934215,0.5757936753578418,0.05542008430655717,0.5342644817525342,-0.7715784444540431,-0.038004121388201875,1.0731427358279049,0.7683234302596156,0.2412742776658483,0.2670426119343543,0.2301855973721367,0.3697121256244057
0.6089205141089203,0.09673004425358556,0.01649528236654969,-0.015657104102553436,0.21855923080810497,0.6023513687619848,-0.19646038676149083,0.19202315036008255,-0.07429677213248671,0.07765559725827877,-0.37441285756396486,-0.12241568411271367,0.08700615104893954,0.4088202240930884,-0.0872664675116539,0.12447984418296687,-0.1798766704108799,0.022675488216207053,-0.07147345316423619,0.431317226641278,0.14534918150193868,0.4176534186112046,0.13633971389243213,0.3595894930441357,-0.1779081600382331,-0.02812410116755106,0.31304572676907094,0.6443199742504897,0.30334195952366644,0.6107967843781555,0.05657578807692872,0.5560670687612547,-0.774987346144124,-0.032057318616069266,1.0777989884963486,0.7244857428288168,0.23821396386596264,0.27836744241475786,0.2307826548950392,0.38583887654088583
0.6118873820573396,0.11503435301343325,0.02265316957398077,-0.015269890602411088,0.23155138374595507,0.6045799900240458,-0.1873143065352082,0.19053400707122814,-0.07503059488616298,0.0686046503001106,-0.37459334970130853,-0.07470502190724186,0.07484948907187369,0.4785577004883473,-0.0872664526104927,0.1496321343063493,-0.18198807906270434,0.020357877076460442,-0.07641269050462252,0.4856798955503175,0.14870528769981328,0.5035271465574919,0.1392299102892648,0.4036725121248295,-0.177220329311724,-0.029069141532475633,0.3109943193380336,0.6495430144026824,0.29833097476194337,0.656072300143616,0.07249456293143505,0.5870424141859437,-0.7744507330879823,-0.037264065333855026,1.0806073601335389,0.6760520911664281,0.23772723850740102,0.296860274347022,0.24106030916292914,0.41136796162193534
0.6157931103641262,0.11979157809036711,0.030930171492885603,-0.0012990961251813265,0.24613315672258726,0.6086717102850392,-0.17225186030070003,0.19802823238947823,-0.0761685824536626,0.05909110012382649,-0.37429064007071233,-0.04598295797548348,0.09361702200360106,0.5545570971751507,-0.08726650476455688,0.17437133911797878,-0.1881518960338132,0.01841593282011185,-0.0866627051782146,0.5246293914331646,0.1757076680490721,0.5865733087130641,0.139370273370656,0.4463415138075917,-0.18089375215178866,-0.027394648901991055,0.30315589847147,0.6606719971923697,0.31557944986600495,0.7067569410163521,0.08226745112018231,0.618252910919428,-0.7745742656807579,-0.034028289417934406,1.0801130893965494,0.6606516980473905,0.23899892586218752,0.328930525039243,0.24945742786947775,0.44571741757674954
0.6192053163485586,0.13054051574010198,0.050050804105431196,0.013310825621732242,0.26007809229746054,0.6121407670982868,-0.13898739360264464,0.2019014940665986,-0.0782335318404592,0.05141895591780402,-0.3759296329287267,-0.0111825434015325,0.16047762864109213,0.6007154240475299,-0.08726623807360966,0.1854267237332899,-0.18930403299977216,0.013835450743491504,-0.07851093690058367,0.5308979973790313,0.2416851389581014,0.6189960389481735,0.13220110680564698,0.4595277566585659,-0.18739361954223574,-0.029524648331097133,0.3140646778004701,0.6658599784553249,0.3715380083205882,0.730710925536486,0.07965668875711371,0.6299242420679335,-0.774365491461564,-0.03053379561370657,1.087135579466684,0.6728038185353428,0.25282832088459584,0.3437938113634356,0.24996646138520504,0.4633122558818874
0.619345624292263,0.14168450277006261,0.09267642888091125,0.0377423823286649,0.27399166716650486,0.6115408755406585,-0.07494182503264102,0.1982034436671807,-0.0788914808437686,0.04298823398026183,-0.36442667805294127,0.10239547348673438,0.2892813870727813,0.6757238899888439,-0.08726778471327479,0.19383126639668852,-0.1734479791882095,0.005979598170851987,-0.018401690507657262,0.5753019704346771,0.4734140374147852,0.6629064396379751,0.10969184740818401,0.4628315039055339,-0.18707671278369303,-0.03659478182119314,0.36995084517644944,0.7192509884313512,0.5422829454669368,0.7740121618065818,0.09410867601022786,0.6393140405925061,-0.7755026068703713,-0.024569662205188345,1.1208038956638897,0.7451919520674305,0.2757990773220518,0.38391983264949137,0.2536659802186204,0.48870139978444616
0.5823708768590733,0.12564204782417107,0.13186056778868938,0.08039271817102847,0.2930727521035991,0.5961131191769018,-0.005506916340352479,0.1943739781810968,-0.08702339134491607,0.034393642292664256,-0.29143037813990175,0.3094673213189746,0.5049082548002567,0.8037810621272425,-0.08725875236339808,0.20778220290142219,-0.13889446173104894,0.004527171253649395,0.13203638544532637,0.690274613776981,0.8748957600881019,0.7302712920175873,0.17525989832663688,0.4668347043524557,-0.16531714683438928,-0.03224194309842684,0.4753827141583017,0.799079867624449,0.8494931458409686,0.8270299466193325,0.17476542087205968,0.6435468111089743,-0.7688447120043204,-0.00828325562708872,1.202737314573597,0.7998176453395643,0.32279376573733415,0.4575141868188508,0.2674305421364859,0.5172539566631877
0.4857402034654827,0.10803964310267407,0.14697036893023294,0.09972183360581519,0.29491452752391095,0.5867321918441981,0.04780722754468132,0.20029503773300314,-0.06715588676780301,0.03584979683059063,-0.14442834117374656,0.49726075344253834,0.9218257024155256,0.9242899555530698,-0.08731156847820076,0.2308522602193591,0.01904849236591556,0.010622474648889062,0.3667797358437466,0.7703935960318313,1.210507270419149,0.794452348192126,0.3244760871204766,0.47935304323696576,-0.010875049454030308,-0.021211804052872072,0.601173015652527,0.8285373642582944,1.2198449971325964,0.8734116985529357,0.34008228066838175,0.651094797460428,-0.4594821578677888,0.0034557519755003163,1.2815973591885874,0.7917748143106056,0.4512820654083568,0.5268275819812076,0.42389539338487203,0.5399811052218232
0.4111085948581988,0.11334141912161287,0.10811179187212373,0.07897659593322168,0.26278042004987234,0.5922921973283788,0.08572193755173851,0.2057430784348335,-0.01795285440816093,0.05003552244334093,0.19692850074772192,0.5581711482879652,1.1259476320735424,0.9730359429792333,-0.08700273424997264,0.2553548799134766,0.14243270939934388,0.01611178785994802,0.6588893799244752,0.7333212057478191,1.3280738411096176,0.8055245916998021,0.4633716307199044,0.48541208857562357,0.08761562642231337,-0.01755236369897786,0.7241061333910191,0.783640222236158,1.4609122013882976,0.8841279069718241,0.5121584949639879,0.654636379700065,-0.21236999159990294,-8.336729116020467e-05,1.2788991368671325,0.7656214222973117,0.6550495901205438,0.5450068810897476,0.6288270552614039,0.5520492939615412
0.39349808200634406,0.10462185348022836,0.05625671769181992,0.07335648823855806,0.22381220768132795,0.6038428081180454,0.10145699165854695,0.25324612859301593,0.03515849834195628,0.055842674594792065,0.45645075222737524,0.5744339298198378,1.1050661924349168,1.0937424742185444,-0.0888085327322029,0.31741899950376623,0.13729984975240928,0.018218481724613426,0.8233783517681269,0.727484214563553,1.36972102600831,0.9111860700977228,0.6204869767504712,0.5557592163991847,0.071251089933654,-0.01470310237487544,0.7868369734327939,0.7928285584514853,1.5383544510677531,0.9909974476311898,0.6309209694498884,0.7208579426739379,-0.20104394568314732,0.006309361878328723,1.226535413588003,0.810304332715251,0.8428200792533915,0.6416275183902225,0.7044564731020695,0.6317285641739636
0.37616447404247394,0.06857883877653909,0.002613946165046966,0.07262456279345483,0.1860835673679541,0.6053001758249413,0.08269121448707568,0.3000359864602452,0.07442063547933532,0.0609861304824566,0.5902245748571957,0.585431485249321,1.1758195153004192,1.2438188578352851,-0.07825001532612447,0.39577665919940175,0.10448441773110603,0.02393093657286766,0.8494993799172162,0.7473340744790503,1.4210404069486053,1.0528271401023426,0.8747597757866722,0.654952519684521,0.06473075420901914,-0.005761687090489024,0.8003191762816783,0.807085765438818,1.5807562869834677,1.1195339940242526,0.7273482603356821,0.8070094379955588,-0.18000599398649636,0.013198793103412227,1.1713908701219664,0.8271639857004667,1.020570377915654,0.7562501498999175,0.7038362624634386,0.7271454460723947
0.3601281126204613,0.038379192365009474,-0.04005316100734858,0.06861103631225465,0.15736688607381907,0.5936190752446042,0.04859502031229498,0.295479121977152,0.14184920805102658,0.07357607631858284,0.6702020440899058,0.5626885941817902,1.335059385250858,1.2530465154517636,0.06226823717965831,0.41202052929295613,0.0989457718239709,0.027110265917542013,0.857708134545401,0.7146303708642828,1.454451554057541,1.0497518114669335,1.1174679034399069,0.6647697453205904,0.07219724702957127,-0.007081515681786814,0.8050176511445549,0.767814852271878,1.5893824576517828,1.1114325075833063,0.8265911767914016,0.8097842140409321,-0.15000999136589527,-0.005077267103786943,1.1279847304568766,0.7886264238748133,1.1540268216116831,0.7494266698384859,0.7028769698159278,0.7267920452173255
